; generated by PrusaSlicer 2.2.0+win64 on 2020-11-18 at 08:53:55 UTC

; 

; external perimeters extrusion width = 0.45mm
; perimeters extrusion width = 0.45mm
; infill extrusion width = 0.45mm
; solid infill extrusion width = 0.45mm
; top infill extrusion width = 0.40mm
; first layer extrusion width = 0.42mm

M73 P0 R28
M73 Q0 S28
M201 X1000 Y1000 Z200 E5000 ; sets maximum accelerations, mm/sec^2
M203 X200 Y200 Z12 E120 ; sets maximum feedrates, mm/sec
M204 P1250 R1250 T1250 ; sets acceleration (P, T) and retract acceleration (R), mm/sec^2
M205 X8.00 Y8.00 Z0.40 E4.50 ; sets the jerk limits, mm/sec
M205 S0 T0 ; sets the minimum extruding and travel feed rate, mm/sec
M107
M862.3 P "MK3S" ; printer model check
M862.1 P0.4 ; nozzle diameter check
M115 U3.9.1 ; tell printer latest fw version
G90 ; use absolute coordinates
M83 ; extruder relative mode
M104 S240 ; set extruder temp
M140 S85 ; set bed temp
M190 S85 ; wait for bed temp
M109 S240 ; wait for extruder temp
G28 W ; home all without mesh bed level
G80 ; mesh bed leveling
G1 Y-3.0 F1000.0 ; go outside print area
G92 E0.0
G1 X60.0 E9.0 F1000.0 ; intro line
M73 Q0 S28
M73 P0 R28
G1 X100.0 E12.5 F1000.0 ; intro line
G92 E0.0
M221 S95

; Don't change E values below. Excessive value can damage the printer.
M907 E430 ; set extruder motor current
G21 ; set units to millimeters
G90 ; use absolute coordinates
M83 ; use relative distances for extrusion
M900 K0.08 ; Filament gcode LA 1.5
M900 K45 ; Filament gcode LA 1.0
;BEFORE_LAYER_CHANGE
G92 E0.0
;0.2


G1 E-1.40000 F2100.00000
G1 Z0.200 F10800.000
;AFTER_LAYER_CHANGE
;0.2
G1 Z0.400
G1 X119.120 Y97.218
G1 Z0.200
G1 E1.40000 F2100.00000
M204 S1000
G1 F1200.000
G1 X120.701 Y96.245 E0.05823
G1 X121.748 Y95.804 E0.03560
G1 X141.120 Y88.952 E0.64429
G1 X142.808 Y88.532 E0.05453
G1 X144.527 Y88.419 E0.05400
G1 X145.805 Y88.531 E0.04022
G1 X147.058 Y88.813 E0.04027
G1 X148.597 Y89.410 E0.05178
G1 X149.757 Y90.081 E0.04201
G1 X151.045 Y91.118 E0.05182
G1 X151.915 Y92.065 E0.04035
G1 X152.861 Y93.485 E0.05349
G1 X153.412 Y94.671 E0.04099
G1 X153.770 Y95.804 E0.03727
G1 X153.996 Y97.046 E0.03958
G1 X155.203 Y113.231 E0.50888
G1 X155.192 Y114.442 E0.03798
G1 X154.888 Y115.971 E0.04886
G1 X154.194 Y117.526 E0.05340
G1 X153.184 Y118.857 E0.05238
G1 X151.883 Y119.937 E0.05302
G1 X150.446 Y120.661 E0.05046
G1 X136.932 Y124.707 E0.44231
G1 X136.197 Y124.821 E0.02331
G1 X135.162 Y124.855 E0.03248
G1 X134.128 Y124.742 E0.03261
G1 X133.412 Y124.574 E0.02305
G1 X131.926 Y123.967 E0.05033
G1 X130.606 Y123.047 E0.05046
G1 X118.599 Y112.359 E0.50400
G1 X117.382 Y111.092 E0.05510
G1 X116.704 Y110.130 E0.03689
G1 X116.136 Y109.072 E0.03765
G1 X115.704 Y107.956 E0.03753
G1 X115.412 Y106.791 E0.03765
G1 X115.264 Y105.599 E0.03765
G1 X115.264 Y104.402 E0.03753
G1 X115.411 Y103.210 E0.03765
G1 X115.697 Y102.069 E0.03689
G1 X116.441 Y100.323 E0.05951
G1 X117.037 Y99.367 E0.03534
G1 X117.738 Y98.489 E0.03522
G1 X119.075 Y97.258 E0.05699
G1 X119.329 Y97.535 F10800.000
G1 F1200.000
G1 X120.871 Y96.581 E0.05683
G1 X121.875 Y96.159 E0.03417
G1 X141.238 Y89.310 E0.64397
G1 X142.868 Y88.904 E0.05265
G1 X144.527 Y88.796 E0.05211
G1 X145.745 Y88.904 E0.03834
G1 X146.943 Y89.172 E0.03851
G1 X148.438 Y89.752 E0.05028
G1 X149.543 Y90.391 E0.04001
G1 X150.787 Y91.393 E0.05009
G1 X151.622 Y92.303 E0.03870
G1 X152.537 Y93.676 E0.05176
G1 X153.064 Y94.817 E0.03941
G1 X153.404 Y95.897 E0.03548
G1 X153.621 Y97.085 E0.03787
G1 X154.827 Y113.258 E0.50850
G1 X154.776 Y114.753 E0.04690
G1 X154.518 Y115.891 E0.03658
G1 X153.866 Y117.340 E0.04982
G1 X152.902 Y118.607 E0.04994
G1 X151.671 Y119.625 E0.05006
G1 X150.277 Y120.322 E0.04887
G1 X136.828 Y124.344 E0.44014
G1 X135.795 Y124.473 E0.03265
G1 X135.104 Y124.475 E0.02165
G1 X134.116 Y124.356 E0.03123
G1 X133.158 Y124.098 E0.03111
G1 X132.047 Y123.602 E0.03813
G1 X130.836 Y122.747 E0.04649
G1 X118.851 Y112.079 E0.50309
G1 X117.671 Y110.850 E0.05341
G1 X117.024 Y109.931 E0.03525
G1 X116.478 Y108.913 E0.03620
G1 X116.063 Y107.840 E0.03608
G1 X115.781 Y106.716 E0.03632
G1 X115.641 Y105.578 E0.03596
G1 X115.641 Y104.420 E0.03632
G1 X115.783 Y103.274 E0.03620
G1 X116.066 Y102.151 E0.03632
G1 X116.772 Y100.505 E0.05616
G1 X117.346 Y99.583 E0.03405
G1 X118.027 Y98.732 E0.03417
G1 X119.285 Y97.575 E0.05359
G1 F8640.000
G1 X120.871 Y96.581 E-0.43213
G1 X121.875 Y96.159 E-0.25165
G1 X124.514 Y95.225 E-0.64623
G1 E-0.07000 F2100.00000
G1 Z0.400 F10800.000
G1 X127.520 Y93.562
G1 Z0.200
G1 E1.40000 F2100.00000
G1 F1200.000
G1 X126.773 Y93.422 E0.02381
G1 X126.075 Y93.336 E0.02206
G1 X125.368 Y93.292 E0.02221
G1 X124.630 Y93.292 E0.02315
G1 X123.908 Y93.338 E0.02268
G1 X123.197 Y93.426 E0.02247
G1 X122.529 Y93.550 E0.02130
G1 X121.866 Y93.714 E0.02142
G1 X121.078 Y93.963 E0.02590
G1 X120.450 Y94.207 E0.02114
G1 X119.820 Y94.494 E0.02169
G1 X119.116 Y94.872 E0.02507
G1 X118.527 Y95.238 E0.02174
G1 X117.958 Y95.639 E0.02183
G1 X117.352 Y96.128 E0.02440
G1 X116.846 Y96.590 E0.02149
G1 X116.355 Y97.096 E0.02211
G1 X115.876 Y97.655 E0.02309
G1 X115.447 Y98.222 E0.02228
G1 X115.057 Y98.808 E0.02207
G1 X114.686 Y99.448 E0.02320
G1 X114.358 Y100.106 E0.02306
G1 X114.074 Y100.777 E0.02284
G1 X113.827 Y101.482 E0.02342
G1 X113.633 Y102.172 E0.02245
G1 X113.484 Y102.859 E0.02206
G1 X113.377 Y103.548 E0.02185
G1 X113.307 Y104.309 E0.02397
G1 X113.287 Y105.021 E0.02233
G1 X113.310 Y105.736 E0.02243
G1 X113.375 Y106.438 E0.02210
G1 X113.484 Y107.139 E0.02224
G1 X113.639 Y107.850 E0.02281
G1 X113.832 Y108.534 E0.02228
G1 X114.074 Y109.223 E0.02292
G1 X114.357 Y109.892 E0.02277
G1 X114.678 Y110.536 E0.02255
G1 X115.031 Y111.150 E0.02219
G1 X115.438 Y111.765 E0.02314
G1 X115.858 Y112.324 E0.02192
G1 X116.339 Y112.886 E0.02320
G1 X116.844 Y113.408 E0.02277
G1 X117.351 Y113.870 E0.02150
G1 X117.966 Y114.366 E0.02478
G1 X118.536 Y114.768 E0.02186
G1 X119.138 Y115.141 E0.02220
G1 X119.832 Y115.512 E0.02467
G1 X120.439 Y115.789 E0.02094
G1 X121.063 Y116.032 E0.02098
G1 X121.803 Y116.269 E0.02435
G1 X122.517 Y116.447 E0.02309
G1 X123.011 Y116.539 E0.01576
G1 F8640.000
G1 X122.517 Y116.447 E-0.11603
G1 X121.803 Y116.269 E-0.17008
G1 X121.063 Y116.032 E-0.17936
G1 X120.439 Y115.789 E-0.15454
G1 X119.832 Y115.512 E-0.15422
G1 X119.138 Y115.141 E-0.18166
G1 X118.536 Y114.768 E-0.16348
G1 X117.966 Y114.366 E-0.16098
G1 X117.799 Y114.231 E-0.04966
G1 E-0.07000 F2100.00000
G1 Z0.400 F10800.000
G1 X124.312 Y116.688
G1 Z0.200
G1 E1.40000 F2100.00000
G1 F1200.000
G1 X124.618 Y116.707 E0.00961
G1 X125.408 Y116.706 E0.02476
G1 X126.155 Y116.659 E0.02349
G1 X126.127 Y117.546 E0.02784
G1 X126.169 Y118.340 E0.02493
G1 F8640.000
G1 X126.127 Y117.546 E-0.18356
G1 X126.155 Y116.659 E-0.20505
G1 X125.408 Y116.706 E-0.17298
G1 X124.618 Y116.707 E-0.18235
G1 X124.312 Y116.688 E-0.07081
G1 E-0.58525 F2100.00000
G1 Z0.400 F10800.000
G1 X126.352 Y119.513
G1 Z0.200
G1 E1.40000 F2100.00000
G1 F1200.000
G1 X126.563 Y120.324 E0.02627
G1 X126.780 Y120.931 E0.02022
G1 X127.091 Y121.632 E0.02405
G1 X127.454 Y122.298 E0.02379
G1 X127.869 Y122.930 E0.02371
G1 X128.251 Y123.427 E0.01963
G1 X128.667 Y123.899 E0.01972
G1 X129.240 Y124.456 E0.02506
G1 X129.837 Y124.946 E0.02423
G1 X130.409 Y125.344 E0.02183
G1 X130.984 Y125.684 E0.02096
G1 X131.588 Y125.986 E0.02118
G1 X132.304 Y126.276 E0.02422
G1 X133.023 Y126.501 E0.02361
G1 X133.665 Y126.649 E0.02065
G1 X134.313 Y126.751 E0.02057
G1 X135.037 Y126.811 E0.02277
G1 X135.759 Y126.814 E0.02266
G1 X136.507 Y126.758 E0.02351
G1 X137.189 Y126.654 E0.02163
G1 X137.860 Y126.500 E0.02158
G1 X138.578 Y126.275 E0.02360
G1 X139.282 Y125.991 E0.02380
G1 X139.934 Y125.664 E0.02288
G1 X140.508 Y125.320 E0.02098
G1 X141.037 Y124.951 E0.02023
G1 X141.631 Y124.465 E0.02405
G1 X142.164 Y123.951 E0.02322
G1 X142.633 Y123.423 E0.02215
G1 X142.857 Y123.130 E0.01157
G1 F8640.000
G1 X142.633 Y123.423 E-0.08518
G1 X142.164 Y123.951 E-0.16311
G1 X141.631 Y124.465 E-0.17098
G1 X141.037 Y124.951 E-0.17709
G1 X140.508 Y125.320 E-0.14899
G1 X139.934 Y125.664 E-0.15454
G1 X139.282 Y125.991 E-0.16848
G1 X138.578 Y126.275 E-0.17526
G1 X138.221 Y126.387 E-0.08637
G1 E-0.07000 F2100.00000
G1 Z0.400 F10800.000
G1 X143.511 Y122.149
G1 Z0.200
G1 E1.40000 F2100.00000
G1 F1200.000
G1 X143.584 Y122.034 E0.00424
G1 X143.700 Y122.092 E0.00407
G1 F8640.000
G1 X143.584 Y122.034 E-0.02995
G1 X143.511 Y122.149 E-0.03124
G1 E-1.33881 F2100.00000
G1 Z0.400 F10800.000
G1 X144.774 Y122.556
G1 Z0.200
G1 E1.40000 F2100.00000
G1 F1200.000
G1 X145.407 Y122.756 E0.02081
G1 X146.070 Y122.912 E0.02136
G1 X146.754 Y123.021 E0.02170
G1 X147.512 Y123.081 E0.02387
G1 X148.251 Y123.080 E0.02317
G1 X148.957 Y123.024 E0.02220
G1 X149.664 Y122.913 E0.02242
G1 X150.352 Y122.751 E0.02217
G1 X151.031 Y122.534 E0.02236
G1 X151.714 Y122.257 E0.02309
G1 X152.390 Y121.917 E0.02375
G1 X152.953 Y121.578 E0.02061
G1 X153.483 Y121.205 E0.02030
G1 X154.073 Y120.721 E0.02393
G1 X154.616 Y120.195 E0.02371
G1 X155.115 Y119.625 E0.02374
G1 X155.510 Y119.100 E0.02061
G1 X155.864 Y118.552 E0.02045
G1 X156.257 Y117.823 E0.02597
G1 X156.525 Y117.213 E0.02087
G1 X156.746 Y116.593 E0.02065
G1 X156.941 Y115.881 E0.02315
G1 X157.078 Y115.169 E0.02274
G1 X157.161 Y114.408 E0.02398
G1 X157.183 Y113.766 E0.02015
G1 X157.160 Y113.126 E0.02008
G1 X157.079 Y112.389 E0.02324
G1 X156.939 Y111.659 E0.02331
G1 X156.729 Y110.902 E0.02462
G1 X156.498 Y110.270 E0.02112
G1 X156.222 Y109.655 E0.02113
G1 X155.862 Y108.994 E0.02361
G1 X155.443 Y108.354 E0.02396
G1 X154.985 Y107.770 E0.02329
G1 F8640.000
G1 X155.443 Y108.354 E-0.17154
G1 X155.862 Y108.994 E-0.17647
G1 X156.222 Y109.655 E-0.17385
G1 X156.498 Y110.270 E-0.15559
G1 X156.729 Y110.902 E-0.15551
G1 X156.939 Y111.659 E-0.18131
G1 X157.079 Y112.389 E-0.17168
G1 X157.147 Y113.009 E-0.14407
G1 E-0.07000 F2100.00000
G1 Z0.400 F10800.000
G1 X154.165 Y106.917
G1 Z0.200
G1 E1.40000 F2100.00000
G1 F1200.000
G1 X153.495 Y106.352 E0.02750
G1 X152.998 Y106.011 E0.01888
G1 X153.411 Y105.541 E0.01962
G1 X153.826 Y104.997 E0.02145
G1 X154.002 Y104.732 E0.00999
G1 F8640.000
G1 X153.826 Y104.997 E-0.07357
G1 X153.411 Y105.541 E-0.15798
G1 X152.998 Y106.011 E-0.14446
G1 X153.495 Y106.352 E-0.13903
G1 X154.165 Y106.917 E-0.20250
G1 E-0.68244 F2100.00000
G1 Z0.400 F10800.000
G1 X154.675 Y103.615
G1 Z0.200
G1 E1.40000 F2100.00000
G1 F1200.000
G1 X154.924 Y103.119 E0.01741
G1 X155.242 Y102.370 E0.02552
G1 X155.477 Y101.698 E0.02231
G1 X155.665 Y101.033 E0.02170
G1 X155.815 Y100.357 E0.02170
G1 X155.927 Y99.645 E0.02260
G1 X155.998 Y98.895 E0.02361
G1 X156.021 Y98.159 E0.02308
G1 X155.997 Y97.432 E0.02282
G1 X155.932 Y96.731 E0.02207
G1 X155.823 Y96.026 E0.02237
G1 X155.646 Y95.232 E0.02549
G1 X155.464 Y94.603 E0.02054
G1 X155.242 Y93.972 E0.02098
G1 X154.940 Y93.257 E0.02434
G1 X154.600 Y92.579 E0.02378
G1 X154.271 Y92.011 E0.02058
G1 X153.910 Y91.463 E0.02057
G1 X153.489 Y90.897 E0.02214
G1 X152.987 Y90.305 E0.02433
G1 X152.458 Y89.758 E0.02384
G1 X151.913 Y89.262 E0.02311
G1 X151.300 Y88.772 E0.02461
G1 X150.773 Y88.403 E0.02017
G1 X150.236 Y88.068 E0.01985
G1 X149.546 Y87.694 E0.02461
G1 X148.879 Y87.385 E0.02305
G1 X148.195 Y87.121 E0.02297
G1 X147.478 Y86.894 E0.02358
G1 X146.742 Y86.712 E0.02377
G1 X146.096 Y86.594 E0.02062
G1 X145.444 Y86.512 E0.02058
G1 X144.727 Y86.464 E0.02256
G1 X143.899 Y86.464 E0.02595
G1 X143.189 Y86.510 E0.02231
G1 X142.489 Y86.598 E0.02211
G1 X141.810 Y86.726 E0.02166
G1 X141.147 Y86.891 E0.02144
G1 X140.373 Y87.137 E0.02546
G1 X139.746 Y87.381 E0.02110
G1 X139.127 Y87.664 E0.02135
G1 X138.424 Y88.041 E0.02502
G1 X137.823 Y88.416 E0.02219
G1 X137.243 Y88.826 E0.02228
G1 X136.659 Y89.298 E0.02352
G1 X136.147 Y89.767 E0.02178
G1 X135.670 Y90.258 E0.02146
G1 X135.153 Y90.862 E0.02493
G1 F8640.000
G1 X135.670 Y90.258 E-0.18363
G1 X136.147 Y89.767 E-0.15805
G1 X136.659 Y89.298 E-0.16042
G1 X137.243 Y88.826 E-0.17321
G1 X137.823 Y88.416 E-0.16410
G1 X138.424 Y88.041 E-0.16339
G1 X139.127 Y87.664 E-0.18425
G1 X139.690 Y87.407 E-0.14295
G1 E-0.07000 F2100.00000
G1 Z0.400 F10800.000
G1 X134.396 Y91.930
G1 Z0.200
G1 E1.40000 F2100.00000
G1 F1200.000
G1 X134.010 Y92.586 E0.02387
G1 X133.692 Y93.218 E0.02220
G1 X133.387 Y93.933 E0.02438
G1 X133.134 Y94.653 E0.02390
G1 X132.943 Y95.331 E0.02212
G1 X132.750 Y96.210 E0.02820
G1 X132.023 Y95.625 E0.02927
G1 X131.474 Y95.238 E0.02106
G1 X130.885 Y94.872 E0.02174
G1 X130.225 Y94.517 E0.02350
G1 X129.560 Y94.211 E0.02293
G1 X128.780 Y93.917 E0.02615
G1 X128.191 Y94.125 F10800.000
G1 F1200.000
G1 X128.769 Y94.309 E0.01904
G1 X129.419 Y94.560 E0.02184
G1 X130.052 Y94.851 E0.02184
G1 X130.691 Y95.196 E0.02277
G1 X131.261 Y95.549 E0.02103
G1 X131.800 Y95.930 E0.02070
G1 X132.406 Y96.417 E0.02436
G1 X133.023 Y96.982 E0.02625
G1 X133.167 Y96.071 E0.02893
G1 X133.307 Y95.428 E0.02062
G1 X133.496 Y94.761 E0.02175
G1 X133.736 Y94.075 E0.02277
G1 X134.031 Y93.382 E0.02363
G1 X134.339 Y92.770 E0.02148
G1 X134.676 Y92.191 E0.02101
G1 X134.987 Y91.721 E0.01768
G1 F8640.000
G1 X134.676 Y92.191 E-0.13019
G1 X134.339 Y92.770 E-0.15469
G1 X134.031 Y93.382 E-0.15818
G1 X133.736 Y94.075 E-0.17399
G1 X133.496 Y94.761 E-0.16768
G1 X133.307 Y95.428 E-0.16020
G1 X133.167 Y96.071 E-0.15182
G1 X133.023 Y96.982 E-0.21302
G1 X132.959 Y96.923 E-0.02024
G1 E-0.07000 F2100.00000
G1 Z0.400 F10800.000
G1 X135.863 Y90.611
G1 Z0.200
G1 E1.40000 F2100.00000
G1 F1200.000
G1 X136.413 Y90.034 E0.02501
G1 X136.910 Y89.580 E0.02107
G1 X137.475 Y89.124 E0.02279
G1 X138.036 Y88.727 E0.02155
G1 X138.618 Y88.365 E0.02147
G1 X139.289 Y88.005 E0.02389
G1 X139.898 Y87.726 E0.02099
G1 X140.504 Y87.491 E0.02039
G1 X141.255 Y87.253 E0.02470
G1 X141.896 Y87.093 E0.02071
G1 X142.553 Y86.970 E0.02096
G1 X143.230 Y86.885 E0.02141
G1 X143.905 Y86.841 E0.02120
G1 X144.708 Y86.841 E0.02517
G1 X145.403 Y86.887 E0.02184
G1 X146.043 Y86.967 E0.02024
G1 X146.669 Y87.082 E0.01994
G1 X147.382 Y87.259 E0.02304
G1 X148.076 Y87.478 E0.02282
G1 X148.726 Y87.730 E0.02187
G1 X149.372 Y88.028 E0.02230
G1 X150.041 Y88.391 E0.02387
G1 X150.569 Y88.720 E0.01950
G1 X151.078 Y89.078 E0.01950
G1 X151.673 Y89.553 E0.02387
G1 X152.200 Y90.033 E0.02235
G1 X152.703 Y90.553 E0.02270
G1 X153.190 Y91.127 E0.02358
G1 X153.598 Y91.675 E0.02143
G1 X153.953 Y92.214 E0.02023
G1 X154.271 Y92.763 E0.01990
G1 X154.600 Y93.420 E0.02305
G1 X154.893 Y94.113 E0.02358
G1 X155.107 Y94.723 E0.02027
G1 X155.282 Y95.331 E0.01986
G1 X155.453 Y96.101 E0.02474
G1 X155.558 Y96.783 E0.02161
G1 X155.621 Y97.461 E0.02135
G1 X155.643 Y98.165 E0.02210
G1 X155.622 Y98.866 E0.02197
G1 X155.553 Y99.603 E0.02324
G1 X155.443 Y100.292 E0.02186
G1 X155.301 Y100.935 E0.02065
G1 X155.119 Y101.579 E0.02100
G1 X154.892 Y102.229 E0.02155
G1 X154.619 Y102.872 E0.02191
G1 F8640.000
G1 X154.892 Y102.229 E-0.16135
G1 X155.119 Y101.579 E-0.15873
G1 X155.301 Y100.935 E-0.15462
G1 X155.443 Y100.292 E-0.15208
G1 X155.553 Y99.603 E-0.16100
G1 X155.622 Y98.866 E-0.17112
G1 X155.643 Y98.165 E-0.16182
G1 X155.621 Y97.461 E-0.16272
G1 X155.603 Y97.260 E-0.04656
G1 E-0.07000 F2100.00000
G1 Z0.400 F10800.000
G1 X153.956 Y104.119
G1 Z0.200
G1 E1.40000 F2100.00000
G1 F1200.000
G1 X153.522 Y104.773 E0.02461
G1 X153.115 Y105.307 E0.02105
G1 X152.433 Y106.082 E0.03238
G1 X153.261 Y106.648 E0.03146
G1 X153.832 Y107.118 E0.02319
G1 X154.207 Y107.484 E0.01641
G1 F8640.000
G1 X153.832 Y107.118 E-0.12088
G1 X153.261 Y106.648 E-0.17077
G1 X152.433 Y106.082 E-0.23170
G1 X153.115 Y105.307 E-0.23846
G1 X153.522 Y104.773 E-0.15501
G1 X153.956 Y104.119 E-0.18125
G1 E-0.30193 F2100.00000
G1 Z0.400 F10800.000
G1 X155.035 Y108.442
G1 Z0.200
G1 E1.40000 F2100.00000
G1 F1200.000
G1 X155.542 Y109.194 E0.02844
G1 X155.887 Y109.829 E0.02266
G1 X156.151 Y110.418 E0.02024
G1 X156.372 Y111.024 E0.02024
G1 X156.574 Y111.752 E0.02368
G1 X156.707 Y112.452 E0.02235
G1 X156.785 Y113.160 E0.02232
G1 X156.806 Y113.773 E0.01922
G1 X156.786 Y114.375 E0.01889
G1 X156.706 Y115.105 E0.02305
G1 X156.572 Y115.803 E0.02226
G1 X156.384 Y116.486 E0.02222
G1 X156.172 Y117.080 E0.01978
G1 X155.915 Y117.664 E0.02001
G1 X155.543 Y118.354 E0.02456
G1 X155.197 Y118.889 E0.02000
