; generated by PrusaSlicer 2.2.0+win64 on 2020-11-15 at 16:35:10 UTC

; 

; external perimeters extrusion width = 0.45mm
; perimeters extrusion width = 0.45mm
; infill extrusion width = 0.45mm
; solid infill extrusion width = 0.45mm
; top infill extrusion width = 0.40mm
; first layer extrusion width = 0.42mm

M73 P0 R225
M73 Q0 S227
M201 X1000 Y1000 Z1000 E5000 ; sets maximum accelerations, mm/sec^2
M203 X200 Y200 Z12 E120 ; sets maximum feedrates, mm/sec
M204 P1250 R1250 T1250 ; sets acceleration (P, T) and retract acceleration (R), mm/sec^2
M205 X8.00 Y8.00 Z0.40 E4.50 ; sets the jerk limits, mm/sec
M205 S0 T0 ; sets the minimum extruding and travel feed rate, mm/sec
M107
M862.3 P "MK3S" ; printer model check
M862.1 P0.4 ; nozzle diameter check
M115 U3.8.1 ; tell printer latest fw version
G90 ; use absolute coordinates
M83 ; extruder relative mode
M104 S215 ; set extruder temp
M140 S60 ; set bed temp
M190 S60 ; wait for bed temp
M109 S215 ; wait for extruder temp
G28 W ; home all without mesh bed level
G80 ; mesh bed leveling
G1 Y-3.0 F1000.0 ; go outside print area
G92 E0.0
G1 X60.0 E9.0 F1000.0 ; intro line
M73 Q0 S227
M73 P0 R225
G1 X100.0 E12.5 F1000.0 ; intro line
G92 E0.0
M221 S95
G21 ; set units to millimeters
G90 ; use absolute coordinates
M83 ; use relative distances for extrusion
M900 K30 ; Filament gcode
;BEFORE_LAYER_CHANGE
G92 E0.0
;0.2


G1 E-0.80000 F2100.00000
G1 Z0.600 F10800.000
;AFTER_LAYER_CHANGE
;0.2
G1 X61.197 Y51.325
G1 Z0.200
G1 E0.80000 F2100.00000
M204 S1000
G1 F1200.000
G1 X62.483 Y49.810 E0.06229
G1 X63.960 Y48.280 E0.06669
G1 X65.395 Y46.967 E0.06098
G1 X66.961 Y45.702 E0.06312
G1 X68.670 Y44.494 E0.06561
G1 X70.324 Y43.471 E0.06098
G1 X72.098 Y42.519 E0.06312
G1 X74.002 Y41.650 E0.06562
G1 X75.817 Y40.952 E0.06098
G1 X77.737 Y40.347 E0.06312
G1 X79.769 Y39.847 E0.06562
G1 X81.683 Y39.499 E0.06098
G1 X83.655 Y39.264 E0.06229
G1 X85.753 Y39.147 E0.06587
G1 X169.248 Y39.147 E2.61792
G1 X171.387 Y39.268 E0.06718
G1 X173.318 Y39.499 E0.06097
G1 X175.231 Y39.847 E0.06097
G1 X177.260 Y40.346 E0.06551
G1 X179.251 Y40.977 E0.06551
G1 X181.066 Y41.677 E0.06097
G1 X182.837 Y42.488 E0.06109
G1 X184.680 Y43.473 E0.06551
G1 X186.391 Y44.533 E0.06312
G1 X187.978 Y45.658 E0.06097
G1 X189.608 Y46.970 E0.06563
G1 X191.093 Y48.330 E0.06312
G1 X192.443 Y49.729 E0.06097
G1 X193.799 Y51.319 E0.06551
G1 X195.047 Y52.994 E0.06551
G1 X196.112 Y54.622 E0.06097
G1 X197.077 Y56.314 E0.06109
G1 X197.998 Y58.190 E0.06551
G1 X198.794 Y60.121 E0.06550
G1 X199.424 Y61.961 E0.06098
G1 X199.940 Y63.836 E0.06097
G1 X200.379 Y65.937 E0.06730
G1 X200.658 Y67.877 E0.06145
G1 X200.822 Y69.887 E0.06324
G1 X200.859 Y71.900 E0.06312
G1 X200.774 Y73.884 E0.06229
G1 X195.651 Y142.181 E2.14740
G1 X195.356 Y144.195 E0.06382
G1 X194.957 Y146.098 E0.06098
G1 X194.443 Y147.974 E0.06097
G1 X193.770 Y149.947 E0.06539
G1 X192.996 Y151.814 E0.06336
G1 X192.109 Y153.626 E0.06324
G1 X191.073 Y155.440 E0.06550
G1 X190.009 Y157.063 E0.06086
G1 X188.845 Y158.621 E0.06097
G1 X187.517 Y160.190 E0.06443
G1 X186.040 Y161.720 E0.06669
G1 X184.605 Y163.033 E0.06098
G1 X183.036 Y164.300 E0.06324
G1 X181.394 Y165.465 E0.06312
G1 X179.738 Y166.492 E0.06109
G1 X177.834 Y167.513 E0.06776
G1 X176.065 Y168.323 E0.06098
G1 X174.187 Y169.046 E0.06312
G1 X172.263 Y169.653 E0.06324
G1 X170.372 Y170.123 E0.06109
G1 X168.249 Y170.510 E0.06765
G1 X166.314 Y170.739 E0.06109
G1 X164.297 Y170.852 E0.06336
G1 X80.752 Y170.853 E2.61948
G1 X78.712 Y170.741 E0.06408
G1 X76.678 Y170.501 E0.06420
G1 X74.624 Y170.122 E0.06550
G1 X72.737 Y169.653 E0.06098
G1 X70.882 Y169.069 E0.06097
G1 X68.934 Y168.323 E0.06539
G1 X67.037 Y167.449 E0.06551
G1 X65.324 Y166.529 E0.06097
G1 X63.670 Y165.506 E0.06097
G1 X61.964 Y164.300 E0.06551
G1 X60.374 Y163.015 E0.06408
G1 X58.904 Y161.667 E0.06252
G1 X57.508 Y160.218 E0.06312
G1 X56.201 Y158.681 E0.06324
G1 X55.036 Y157.124 E0.06097
G1 X53.851 Y155.316 E0.06777
G1 X52.889 Y153.622 E0.06109
G1 X52.002 Y151.810 E0.06324
G1 X51.230 Y149.947 E0.06324
G1 X50.577 Y148.043 E0.06312
G1 X50.043 Y146.098 E0.06324
G1 X49.644 Y144.195 E0.06097
G1 X49.335 Y142.055 E0.06777
G1 X49.178 Y140.113 E0.06109
G1 X49.141 Y138.085 E0.06360
G1 X49.228 Y136.084 E0.06281
G1 X54.182 Y69.822 E2.08338
G1 X54.342 Y67.876 E0.06123
G1 X54.621 Y65.936 E0.06145
G1 X55.042 Y63.905 E0.06503
G1 X55.577 Y61.957 E0.06336
G1 X56.232 Y60.049 E0.06324
G1 X57.033 Y58.124 E0.06539
G1 X57.925 Y56.311 E0.06335
G1 X58.888 Y54.621 E0.06098
G1 X59.951 Y52.997 E0.06085
G1 X61.161 Y51.373 E0.06351
G1 F8640.000
G1 X62.483 Y49.810 E-0.47252
G1 X63.347 Y48.915 E-0.28748
G1 E-0.04000 F2100.00000
G1 Z0.800 F10800.000
G1 X120.369 Y137.491
G1 Z0.200
G1 E0.80000 F2100.00000
G1 F1200.000
G1 X120.958 Y137.092 E0.02232
G1 X121.619 Y136.828 E0.02232
G1 X122.259 Y136.723 E0.02033
G1 X123.027 Y136.750 E0.02409
G1 X123.718 Y136.942 E0.02250
G1 X124.347 Y137.275 E0.02232
G1 X124.890 Y137.736 E0.02232
G1 X125.321 Y138.303 E0.02232
G1 X125.619 Y138.949 E0.02232
G1 X125.772 Y139.644 E0.02232
G1 X125.772 Y140.356 E0.02232
G1 X125.619 Y141.051 E0.02232
G1 X125.321 Y141.697 E0.02232
G1 X124.890 Y142.264 E0.02232
G1 X124.347 Y142.725 E0.02232
G1 X123.718 Y143.058 E0.02232
G1 X123.033 Y143.248 E0.02232
G1 X122.322 Y143.287 E0.02232
G1 X121.619 Y143.172 E0.02232
G1 X120.958 Y142.908 E0.02232
G1 X120.369 Y142.509 E0.02232
G1 X119.879 Y141.992 E0.02232
G1 X119.513 Y141.382 E0.02232
G1 X119.285 Y140.708 E0.02232
G1 X119.208 Y140.000 E0.02232
G1 X119.285 Y139.292 E0.02232
G1 X119.513 Y138.618 E0.02232
G1 X119.879 Y138.008 E0.02232
G1 X120.328 Y137.535 E0.02044
G1 X120.601 Y137.794 F10800.000
G1 F1200.000
G1 X121.136 Y137.427 E0.02033
G1 X121.721 Y137.194 E0.01975
G1 X122.283 Y137.102 E0.01787
G1 X122.969 Y137.125 E0.02152
G1 X123.578 Y137.294 E0.01981
G1 X124.134 Y137.589 E0.01975
G1 X124.614 Y137.997 E0.01975
G1 X124.996 Y138.498 E0.01975
G1 X125.260 Y139.070 E0.01975
G1 X125.395 Y139.685 E0.01975
G1 X125.395 Y140.315 E0.01975
G1 X125.260 Y140.930 E0.01975
G1 X124.996 Y141.502 E0.01975
G1 X124.614 Y142.003 E0.01975
G1 X124.134 Y142.411 E0.01975
G1 X123.578 Y142.706 E0.01975
G1 X122.971 Y142.874 E0.01975
G1 X122.342 Y142.908 E0.01975
G1 X121.721 Y142.806 E0.01975
G1 X121.136 Y142.573 E0.01975
G1 X120.615 Y142.220 E0.01975
G1 X120.181 Y141.763 E0.01975
G1 X119.857 Y141.223 E0.01975
G1 X119.656 Y140.626 E0.01975
G1 X119.588 Y140.000 E0.01975
G1 X119.656 Y139.374 E0.01975
G1 X119.857 Y138.777 E0.01975
G1 X120.181 Y138.237 E0.01975
G1 X120.560 Y137.838 E0.01727
G1 X120.528 Y137.401 F10800.000
G1 F8640.000
G1 X121.136 Y137.427 E-0.16328
G1 X121.721 Y137.194 E-0.14542
G1 X122.283 Y137.102 E-0.13160
G1 X122.969 Y137.125 E-0.15848
G1 X123.578 Y137.294 E-0.14589
G1 X123.637 Y137.326 E-0.01534
G1 E-0.04000 F2100.00000
G1 Z0.800 F10800.000
G1 X123.086 Y152.781
G1 Z0.200
G1 E0.80000 F2100.00000
G1 F1200.000
G1 X123.647 Y153.013 E0.01903
G1 X124.122 Y153.378 E0.01878
G1 X124.487 Y153.853 E0.01878
G1 X124.716 Y154.406 E0.01878
G1 X124.794 Y155.000 E0.01878
G1 X124.716 Y155.594 E0.01878
G1 X124.487 Y156.147 E0.01878
G1 X124.122 Y156.622 E0.01878
G1 X123.647 Y156.987 E0.01878
G1 X123.150 Y157.193 E0.01688
G1 X122.508 Y157.295 E0.02037
G1 X121.906 Y157.216 E0.01903
G1 X121.353 Y156.987 E0.01878
G1 X120.878 Y156.622 E0.01878
G1 X120.513 Y156.147 E0.01878
G1 X120.284 Y155.594 E0.01878
G1 X120.206 Y155.000 E0.01878
G1 X120.284 Y154.406 E0.01878
G1 X120.513 Y153.853 E0.01878
G1 X120.878 Y153.378 E0.01878
G1 X121.353 Y153.013 E0.01878
G1 X121.906 Y152.784 E0.01878
G1 X122.440 Y152.714 E0.01688
G1 X123.026 Y152.775 E0.01849
G1 X122.987 Y153.150 F10800.000
G1 F1200.000
G1 X123.457 Y153.343 E0.01591
G1 X123.853 Y153.647 E0.01566
G1 X124.157 Y154.043 E0.01566
G1 X124.348 Y154.505 E0.01566
G1 X124.414 Y155.000 E0.01566
G1 X124.348 Y155.495 E0.01566
G1 X124.157 Y155.957 E0.01566
G1 X123.853 Y156.353 E0.01566
G1 X123.457 Y156.657 E0.01566
G1 X123.046 Y156.827 E0.01393
G1 X122.503 Y156.914 E0.01726
G1 X122.005 Y156.848 E0.01575
G1 X121.543 Y156.657 E0.01566
G1 X121.147 Y156.353 E0.01566
G1 X120.843 Y155.957 E0.01566
G1 X120.652 Y155.495 E0.01566
G1 X120.586 Y155.000 E0.01566
G1 X120.652 Y154.505 E0.01566
G1 X120.843 Y154.043 E0.01566
G1 X121.147 Y153.647 E0.01566
G1 X121.543 Y153.343 E0.01566
G1 X122.005 Y153.152 E0.01566
G1 X122.445 Y153.094 E0.01393
G1 X122.928 Y153.144 E0.01522
G1 X123.270 Y152.866 F10800.000
G1 F8640.000
G1 X123.457 Y153.343 E-0.13050
G1 X123.853 Y153.647 E-0.11534
G1 X124.157 Y154.043 E-0.11534
G1 X124.348 Y154.505 E-0.11534
G1 X124.414 Y155.000 E-0.11534
G1 X124.348 Y155.495 E-0.11534
G1 X124.261 Y155.706 E-0.05279
G1 E-0.04000 F2100.00000
G1 Z0.800 F10800.000
G1 X151.230 Y143.997
G1 Z0.200
G1 E0.80000 F2100.00000
G1 F1200.000
G1 X151.028 Y143.134 E0.02779
G1 X150.961 Y142.250 E0.02779
G1 X150.993 Y141.834 E0.01310
G1 X151.028 Y141.366 E0.01470
G1 X151.230 Y140.503 E0.02779
G1 X151.562 Y139.681 E0.02779
G1 X152.015 Y138.919 E0.02779
G1 X152.579 Y138.235 E0.02779
G1 X152.890 Y137.958 E0.01310
G1 X153.240 Y137.646 E0.01470
G1 X153.984 Y137.164 E0.02779
G1 X154.793 Y136.801 E0.02779
G1 X155.648 Y136.567 E0.02779
G1 X156.459 Y136.473 E0.02560
G1 X157.411 Y136.498 E0.02985
G1 X158.284 Y136.668 E0.02790
G1 X159.118 Y136.967 E0.02779
G1 X159.897 Y137.391 E0.02779
G1 X160.602 Y137.928 E0.02779
G1 X161.216 Y138.567 E0.02779
G1 X161.726 Y139.292 E0.02779
G1 X162.120 Y140.086 E0.02779
G1 X162.387 Y140.931 E0.02779
G1 X162.522 Y141.807 E0.02779
G1 X162.522 Y142.693 E0.02779
G1 X162.387 Y143.569 E0.02779
G1 X162.141 Y144.348 E0.02560
G1 X161.728 Y145.206 E0.02985
G1 X161.216 Y145.933 E0.02790
G1 X160.602 Y146.572 E0.02779
G1 X159.897 Y147.109 E0.02779
G1 X159.118 Y147.533 E0.02779
G1 X158.284 Y147.832 E0.02779
G1 X157.414 Y148.001 E0.02779
G1 X156.528 Y148.035 E0.02779
G1 X155.648 Y147.933 E0.02779
G1 X154.793 Y147.699 E0.02779
G1 X153.984 Y147.336 E0.02779
G1 X153.240 Y146.854 E0.02779
G1 X152.579 Y146.265 E0.02779
G1 X152.015 Y145.581 E0.02779
G1 X151.562 Y144.819 E0.02779
G1 X151.253 Y144.052 E0.02591
G1 X151.603 Y143.911 F10800.000
G1 F1200.000
G1 X151.402 Y143.076 E0.02694
G1 X151.339 Y142.250 E0.02598
G1 X151.402 Y141.424 E0.02598
G1 X151.591 Y140.617 E0.02598
G1 X151.901 Y139.849 E0.02598
G1 X152.324 Y139.137 E0.02598
G1 X152.851 Y138.498 E0.02598
G1 X153.141 Y138.239 E0.01219
G1 X153.470 Y137.947 E0.01379
G1 X154.165 Y137.496 E0.02598
G1 X154.921 Y137.157 E0.02598
G1 X155.720 Y136.938 E0.02598
G1 X156.476 Y136.851 E0.02385
G1 X157.369 Y136.874 E0.02803
G1 X158.184 Y137.032 E0.02601
G1 X158.964 Y137.312 E0.02598
G1 X159.691 Y137.708 E0.02598
G1 X160.350 Y138.210 E0.02598
G1 X160.925 Y138.807 E0.02598
G1 X161.401 Y139.485 E0.02598
G1 X161.769 Y140.227 E0.02598
G1 X162.019 Y141.017 E0.02598
G1 X162.145 Y141.836 E0.02598
G1 X162.145 Y142.664 E0.02598
G1 X162.019 Y143.483 E0.02598
G1 X161.789 Y144.208 E0.02385
G1 X161.402 Y145.014 E0.02803
G1 X160.925 Y145.693 E0.02601
G1 X160.350 Y146.290 E0.02598
G1 X159.691 Y146.792 E0.02598
G1 X158.964 Y147.188 E0.02598
G1 X158.184 Y147.468 E0.02598
G1 X157.371 Y147.626 E0.02598
G1 X156.543 Y147.657 E0.02598
G1 X155.720 Y147.562 E0.02598
G1 X154.921 Y147.343 E0.02598
G1 X154.165 Y147.004 E0.02598
G1 X153.470 Y146.553 E0.02598
G1 X152.851 Y146.002 E0.02598
G1 X152.324 Y145.363 E0.02598
G1 X151.901 Y144.651 E0.02598
G1 X151.625 Y143.967 E0.02312
G1 X151.212 Y143.827 F10800.000
G1 F8640.000
G1 X151.402 Y143.076 E-0.21209
G1 X151.339 Y142.250 E-0.19129
G1 X151.402 Y141.424 E-0.19129
G1 X151.565 Y140.727 E-0.16533
G1 E-0.04000 F2100.00000
G1 Z0.800 F10800.000
G1 X165.062 Y137.319
G1 Z0.200
G1 E0.80000 F2100.00000
G1 F1200.000
G1 X164.730 Y136.497 E0.02779
G1 X164.528 Y135.634 E0.02779
G1 X164.461 Y134.750 E0.02779
G1 X164.528 Y133.866 E0.02779
G1 X164.730 Y133.003 E0.02779
G1 X165.062 Y132.181 E0.02779
G1 X165.515 Y131.419 E0.02779
G1 X166.079 Y130.735 E0.02779
G1 X166.740 Y130.146 E0.02779
G1 X167.484 Y129.664 E0.02779
G1 X168.293 Y129.301 E0.02779
G1 X169.148 Y129.067 E0.02779
G1 X169.959 Y128.973 E0.02560
G1 X170.911 Y128.998 E0.02985
G1 X171.784 Y129.168 E0.02790
G1 X172.618 Y129.467 E0.02779
G1 X173.397 Y129.891 E0.02779
G1 X174.102 Y130.428 E0.02779
G1 X174.716 Y131.067 E0.02779
G1 X175.226 Y131.792 E0.02779
G1 X175.620 Y132.586 E0.02779
G1 X175.887 Y133.431 E0.02779
G1 X176.022 Y134.307 E0.02779
G1 X176.022 Y135.193 E0.02779
G1 X175.887 Y136.069 E0.02779
G1 X175.641 Y136.848 E0.02560
G1 X175.228 Y137.706 E0.02985
G1 X174.716 Y138.433 E0.02790
G1 X174.102 Y139.072 E0.02779
G1 X173.397 Y139.609 E0.02779
G1 X172.618 Y140.033 E0.02779
G1 X171.784 Y140.332 E0.02779
G1 X170.914 Y140.501 E0.02779
G1 X170.028 Y140.535 E0.02779
G1 X169.148 Y140.433 E0.02779
G1 X168.293 Y140.199 E0.02779
G1 X167.484 Y139.836 E0.02779
G1 X166.740 Y139.354 E0.02779
G1 X166.079 Y138.765 E0.02779
G1 X165.515 Y138.081 E0.02779
G1 X165.092 Y137.370 E0.02591
G1 X165.417 Y137.178 F10800.000
G1 F1200.000
G1 X165.091 Y136.383 E0.02694
G1 X164.902 Y135.576 E0.02598
G1 X164.839 Y134.750 E0.02598
G1 X164.902 Y133.924 E0.02598
G1 X165.091 Y133.117 E0.02598
G1 X165.401 Y132.349 E0.02598
G1 X165.824 Y131.637 E0.02598
G1 X166.351 Y130.998 E0.02598
G1 X166.970 Y130.447 E0.02598
G1 X167.665 Y129.996 E0.02598
G1 X168.421 Y129.657 E0.02598
G1 X169.220 Y129.438 E0.02598
G1 X169.976 Y129.351 E0.02385
G1 X170.869 Y129.374 E0.02803
G1 X171.684 Y129.532 E0.02601
G1 X172.464 Y129.812 E0.02598
G1 X173.191 Y130.208 E0.02598
G1 X173.850 Y130.710 E0.02598
G1 X174.425 Y131.307 E0.02598
G1 X174.901 Y131.985 E0.02598
G1 X175.269 Y132.727 E0.02598
G1 X175.519 Y133.517 E0.02598
G1 X175.645 Y134.336 E0.02598
G1 X175.645 Y135.164 E0.02598
G1 X175.519 Y135.983 E0.02598
G1 X175.289 Y136.708 E0.02386
G1 X174.902 Y137.514 E0.02803
G1 X174.425 Y138.193 E0.02601
G1 X173.850 Y138.790 E0.02598
G1 X173.191 Y139.292 E0.02598
G1 X172.464 Y139.688 E0.02598
G1 X171.684 Y139.968 E0.02598
G1 X170.871 Y140.126 E0.02598
G1 X170.043 Y140.157 E0.02598
G1 X169.220 Y140.062 E0.02598
G1 X168.421 Y139.843 E0.02598
G1 X167.665 Y139.504 E0.02598
G1 X166.970 Y139.053 E0.02598
G1 X166.351 Y138.502 E0.02598
G1 X165.824 Y137.863 E0.02598
G1 X165.447 Y137.229 E0.02312
G1 X165.017 Y137.154 F10800.000
G1 F8640.000
G1 X165.091 Y136.383 E-0.21209
G1 X164.902 Y135.576 E-0.19129
G1 X164.839 Y134.750 E-0.19129
G1 X164.894 Y134.036 E-0.16533
G1 E-0.04000 F2100.00000
G1 Z0.800 F10800.000
G1 X91.174 Y138.000
G1 Z0.200
G1 E0.80000 F2100.00000
G1 F1200.000
G1 X91.174 Y139.000 E0.03138
G1 X91.053 Y140.104 E0.03482
G1 X90.807 Y141.189 E0.03488
G1 X90.437 Y142.241 E0.03496
G1 X89.892 Y143.334 E0.03828
G1 X89.351 Y144.177 E0.03142
G1 X88.649 Y145.039 E0.03486
G1 X87.852 Y145.815 E0.03488
G1 X86.972 Y146.495 E0.03489
G1 X86.020 Y147.070 E0.03486
G1 X85.109 Y147.485 E0.03140
G1 X83.952 Y147.873 E0.03826
G1 X82.858 Y148.092 E0.03498
G1 X81.750 Y148.185 E0.03488
G1 X80.639 Y148.149 E0.03484
G1 X79.647 Y148.007 E0.03142
G1 X78.465 Y147.700 E0.03829
G1 X77.430 Y147.290 E0.03489
G1 X76.545 Y146.823 E0.03138
G1 X75.625 Y146.202 E0.03482
G1 X74.780 Y145.478 E0.03488
G1 X74.024 Y144.661 E0.03488
G1 X73.366 Y143.762 E0.03496
G1 X72.771 Y142.695 E0.03828
G1 X72.381 Y141.773 E0.03141
G1 X72.066 Y140.706 E0.03486
G1 X71.875 Y139.610 E0.03488
G1 X71.812 Y138.500 E0.03487
G1 X71.875 Y137.390 E0.03486
G1 X72.046 Y136.403 E0.03140
G1 X72.380 Y135.229 E0.03826
G1 X72.817 Y134.203 E0.03497
G1 X73.367 Y133.236 E0.03488
G1 X74.024 Y132.340 E0.03484
G1 X74.701 Y131.601 E0.03143
G1 X75.623 Y130.799 E0.03830
G1 X76.546 Y130.176 E0.03494
G1 X77.532 Y129.664 E0.03481
G1 X78.464 Y129.301 E0.03138
G1 X79.537 Y129.013 E0.03483
G1 X80.637 Y128.851 E0.03485
G1 X81.751 Y128.815 E0.03494
G1 X82.858 Y128.908 E0.03485
G1 X83.949 Y129.126 E0.03488
G1 X85.007 Y129.469 E0.03488
G1 X86.020 Y129.930 E0.03488
G1 X86.877 Y130.447 E0.03138
G1 X87.850 Y131.183 E0.03825
G1 X88.649 Y131.961 E0.03498
G1 X89.351 Y132.824 E0.03488
G1 X89.949 Y133.761 E0.03485
G1 X90.392 Y134.660 E0.03142
G1 X90.806 Y135.809 E0.03829
G1 X91.053 Y136.896 E0.03495
G1 X91.167 Y137.940 E0.03294
G1 X90.793 Y137.981 F10800.000
G1 F1200.000
