; generated by PrusaSlicer 2.2.0+win64 on 2020-11-15 at 16:32:02 UTC

; 

; external perimeters extrusion width = 0.45mm
; perimeters extrusion width = 0.45mm
; infill extrusion width = 0.45mm
; solid infill extrusion width = 0.45mm
; top infill extrusion width = 0.40mm
; first layer extrusion width = 0.42mm

M73 P0 R118
M73 Q0 S119
M201 X1000 Y1000 Z1000 E5000 ; sets maximum accelerations, mm/sec^2
M203 X200 Y200 Z12 E120 ; sets maximum feedrates, mm/sec
M204 P1250 R1250 T1250 ; sets acceleration (P, T) and retract acceleration (R), mm/sec^2
M205 X8.00 Y8.00 Z0.40 E4.50 ; sets the jerk limits, mm/sec
M205 S0 T0 ; sets the minimum extruding and travel feed rate, mm/sec
M107
M862.3 P "MK3S" ; printer model check
M862.1 P0.4 ; nozzle diameter check
M115 U3.8.1 ; tell printer latest fw version
G90 ; use absolute coordinates
M83 ; extruder relative mode
M104 S215 ; set extruder temp
M140 S60 ; set bed temp
M190 S60 ; wait for bed temp
M109 S215 ; wait for extruder temp
G28 W ; home all without mesh bed level
G80 ; mesh bed leveling
G1 Y-3.0 F1000.0 ; go outside print area
G92 E0.0
G1 X60.0 E9.0 F1000.0 ; intro line
M73 Q0 S119
M73 P0 R118
G1 X100.0 E12.5 F1000.0 ; intro line
G92 E0.0
M221 S95
G21 ; set units to millimeters
G90 ; use absolute coordinates
M83 ; use relative distances for extrusion
M900 K30 ; Filament gcode
;BEFORE_LAYER_CHANGE
G92 E0.0
;0.2


G1 E-0.80000 F2100.00000
G1 Z0.600 F10800.000
;AFTER_LAYER_CHANGE
;0.2
G1 X64.095 Y79.498
G1 Z0.200
G1 E0.80000 F2100.00000
M204 S1000
G1 F1200.000
G1 X66.269 Y77.943 E0.08380
G1 X68.405 Y76.656 E0.07819
G1 X70.631 Y75.541 E0.07807
G1 X73.051 Y74.558 E0.08189
G1 X75.579 Y73.763 E0.08308
G1 X78.099 Y73.190 E0.08106
G1 X80.662 Y72.820 E0.08117
G1 X83.249 Y72.656 E0.08129
G1 X166.706 Y72.656 E2.61674
G1 X169.335 Y72.820 E0.08257
G1 X171.893 Y73.189 E0.08106
G1 X174.418 Y73.762 E0.08117
G1 X176.885 Y74.534 E0.08106
G1 X179.283 Y75.501 E0.08106
G1 X181.599 Y76.658 E0.08117
G1 X183.812 Y77.994 E0.08106
G1 X185.979 Y79.558 E0.08380
G1 X187.949 Y81.237 E0.08116
G1 X189.713 Y82.996 E0.07808
G1 X191.333 Y84.886 E0.07807
G1 X192.908 Y87.045 E0.08380
G1 X194.213 Y89.179 E0.07843
G1 X195.423 Y91.562 E0.08380
G1 X196.402 Y93.955 E0.08106
G1 X197.187 Y96.422 E0.08117
G1 X197.771 Y98.940 E0.08106
G1 X198.153 Y101.497 E0.08106
G1 X198.329 Y104.080 E0.08117
G1 X198.299 Y106.665 E0.08106
G1 X198.049 Y109.326 E0.08380
G1 X197.599 Y111.875 E0.08116
G1 X196.977 Y114.286 E0.07808
G1 X196.169 Y116.641 E0.07807
G1 X195.105 Y119.093 E0.08380
G1 X193.927 Y121.300 E0.07843
G1 X192.486 Y123.551 E0.08380
G1 X190.919 Y125.607 E0.08106
G1 X189.190 Y127.534 E0.08117
G1 X187.315 Y129.314 E0.08106
G1 X185.305 Y130.938 E0.08106
G1 X183.167 Y132.399 E0.08117
G1 X180.923 Y133.683 E0.08106
G1 X178.527 Y134.806 E0.08296
G1 X176.077 Y135.720 E0.08199
G1 X173.683 Y136.406 E0.07808
G1 X171.243 Y136.902 E0.07807
G1 X168.584 Y137.228 E0.08399
G1 X166.049 Y137.331 E0.07956
G1 X83.989 Y137.332 E2.57295
G1 X81.423 Y137.229 E0.08051
G1 X78.888 Y136.925 E0.08005
G1 X76.225 Y136.381 E0.08522
G1 X73.828 Y135.691 E0.07820
G1 X71.409 Y134.780 E0.08106
G1 X69.076 Y133.683 E0.08082
G1 X66.908 Y132.444 E0.07831
G1 X64.623 Y130.882 E0.08678
G1 X62.681 Y129.311 E0.07831
G1 X60.810 Y127.533 E0.08094
G1 X59.086 Y125.612 E0.08094
G1 X57.570 Y123.627 E0.07831
G1 X56.073 Y121.299 E0.08678
G1 X54.898 Y119.100 E0.07819
G1 X53.866 Y116.734 E0.08094
G1 X53.022 Y114.282 E0.08129
G1 X52.361 Y111.689 E0.08390
G1 X51.938 Y109.235 E0.07808
G1 X51.707 Y106.752 E0.07819
G1 X51.671 Y104.076 E0.08392
G1 X51.847 Y101.493 E0.08117
G1 X52.248 Y98.847 E0.08390
G1 X52.813 Y96.422 E0.07808
G1 X53.568 Y94.045 E0.07819
G1 X54.574 Y91.569 E0.08380
G1 X55.743 Y89.255 E0.08129
G1 X57.142 Y86.974 E0.08390
G1 X58.607 Y84.959 E0.07808
G1 X60.227 Y83.063 E0.07819
G1 X62.117 Y81.174 E0.08380
G1 X64.049 Y79.537 E0.07941
G1 F8640.000
G1 X66.269 Y77.943 E-0.63092
G1 X66.748 Y77.654 E-0.12908
G1 E-0.04000 F2100.00000
G1 Z0.800 F10800.000
G1 X98.538 Y80.617
G1 Z0.200
G1 E0.80000 F2100.00000
G1 F1200.000
G1 X109.898 Y80.586 E0.35620
G1 X140.102 Y80.586 E0.94701
G1 X151.462 Y80.617 E0.35620
G1 X153.489 Y79.499 E0.07257
G1 X155.565 Y78.581 E0.07119
G1 X157.708 Y77.832 E0.07116
G1 X159.903 Y77.257 E0.07116
G1 X162.137 Y76.858 E0.07116
G1 X164.395 Y76.640 E0.07112
G1 X166.797 Y76.611 E0.07532
G1 X168.931 Y76.746 E0.06703
G1 X171.177 Y77.070 E0.07116
G1 X173.391 Y77.573 E0.07116
G1 X175.557 Y78.251 E0.07116
G1 X177.662 Y79.100 E0.07116
G1 X179.692 Y80.114 E0.07116
G1 X181.635 Y81.287 E0.07116
G1 X183.478 Y82.611 E0.07116
G1 X185.210 Y84.079 E0.07116
G1 X186.819 Y85.680 E0.07116
G1 X188.294 Y87.404 E0.07116
G1 X189.628 Y89.241 E0.07116
G1 X190.810 Y91.178 E0.07116
G1 X191.834 Y93.204 E0.07116
G1 X192.692 Y95.305 E0.07116
G1 X193.381 Y97.467 E0.07116
G1 X193.894 Y99.678 E0.07116
G1 X194.229 Y101.923 E0.07116
G1 X194.384 Y104.187 E0.07116
G1 X194.357 Y106.457 E0.07116
G1 X194.149 Y108.717 E0.07116
G1 X193.762 Y110.953 E0.07116
G1 X193.197 Y113.152 E0.07116
G1 X192.458 Y115.298 E0.07116
G1 X191.550 Y117.378 E0.07116
G1 X190.479 Y119.379 E0.07116
G1 X189.252 Y121.288 E0.07116
G1 X187.876 Y123.093 E0.07116
G1 X186.360 Y124.782 E0.07116
G1 X184.714 Y126.345 E0.07116
G1 X182.949 Y127.772 E0.07116
G1 X181.075 Y129.052 E0.07116
G1 X179.105 Y130.180 E0.07116
G1 X177.051 Y131.146 E0.07116
G1 X174.927 Y131.945 E0.07116
G1 X172.746 Y132.572 E0.07116
G1 X170.521 Y133.022 E0.07116
G1 X168.265 Y133.294 E0.07124
G1 X165.984 Y133.385 E0.07158
G1 X84.016 Y133.385 E2.57007
G1 X81.735 Y133.294 E0.07158
G1 X79.479 Y133.022 E0.07124
G1 X77.254 Y132.572 E0.07116
G1 X75.073 Y131.945 E0.07116
G1 X72.949 Y131.146 E0.07116
G1 X70.895 Y130.180 E0.07116
G1 X68.926 Y129.053 E0.07112
G1 X66.949 Y127.689 E0.07532
G1 X65.286 Y126.345 E0.06703
G1 X63.640 Y124.782 E0.07116
G1 X62.124 Y123.093 E0.07116
G1 X60.749 Y121.289 E0.07112
G1 X59.459 Y119.263 E0.07532
G1 X58.450 Y117.378 E0.06703
G1 X57.542 Y115.298 E0.07116
G1 X56.803 Y113.152 E0.07116
G1 X56.238 Y110.953 E0.07116
G1 X55.851 Y108.717 E0.07116
G1 X55.643 Y106.457 E0.07116
G1 X55.616 Y104.187 E0.07116
G1 X55.771 Y101.924 E0.07112
G1 X56.136 Y99.550 E0.07532
G1 X56.619 Y97.467 E0.06703
G1 X57.308 Y95.305 E0.07116
G1 X58.166 Y93.204 E0.07116
G1 X59.190 Y91.178 E0.07116
G1 X60.372 Y89.241 E0.07116
G1 X61.706 Y87.404 E0.07116
G1 X63.181 Y85.680 E0.07116
G1 X64.789 Y84.079 E0.07112
G1 X66.629 Y82.534 E0.07532
G1 X68.365 Y81.287 E0.06703
G1 X70.308 Y80.114 E0.07116
G1 X72.338 Y79.100 E0.07116
G1 X74.443 Y78.251 E0.07116
G1 X76.609 Y77.573 E0.07116
G1 X78.823 Y77.070 E0.07116
G1 X81.069 Y76.746 E0.07116
G1 X83.334 Y76.602 E0.07116
G1 X85.603 Y76.640 E0.07116
G1 X87.863 Y76.858 E0.07116
G1 X90.097 Y77.257 E0.07116
G1 X92.292 Y77.832 E0.07116
G1 X94.435 Y78.581 E0.07116
G1 X96.511 Y79.499 E0.07119
G1 X98.485 Y80.588 E0.07068
G1 X98.635 Y80.240 F10800.000
G1 F1200.000
G1 X109.898 Y80.209 E0.35315
G1 X140.102 Y80.209 E0.94705
G1 X151.365 Y80.240 E0.35315
G1 X153.321 Y79.161 E0.07002
G1 X155.426 Y78.230 E0.07218
G1 X157.597 Y77.471 E0.07211
G1 X159.822 Y76.888 E0.07211
G1 X162.086 Y76.484 E0.07211
G1 X164.375 Y76.263 E0.07209
G1 X166.807 Y76.233 E0.07627
G1 X168.970 Y76.371 E0.06795
G1 X171.246 Y76.699 E0.07211
G1 X173.489 Y77.209 E0.07211
G1 X175.684 Y77.896 E0.07211
G1 X177.817 Y78.755 E0.07211
G1 X179.874 Y79.783 E0.07211
G1 X181.843 Y80.972 E0.07211
G1 X183.711 Y82.314 E0.07211
G1 X185.465 Y83.801 E0.07211
G1 X187.095 Y85.423 E0.07211
G1 X188.591 Y87.170 E0.07211
G1 X189.942 Y89.031 E0.07211
G1 X191.140 Y90.995 E0.07211
G1 X192.177 Y93.047 E0.07211
G1 X193.047 Y95.176 E0.07211
G1 X193.745 Y97.367 E0.07211
G1 X194.265 Y99.608 E0.07211
G1 X194.604 Y101.882 E0.07211
G1 X194.761 Y104.177 E0.07211
G1 X194.734 Y106.476 E0.07211
G1 X194.523 Y108.767 E0.07211
G1 X194.131 Y111.033 E0.07211
G1 X193.558 Y113.260 E0.07211
G1 X192.810 Y115.435 E0.07211
G1 X191.890 Y117.542 E0.07211
G1 X190.804 Y119.570 E0.07211
G1 X189.561 Y121.505 E0.07211
G1 X188.166 Y123.334 E0.07211
G1 X186.631 Y125.045 E0.07211
G1 X184.963 Y126.629 E0.07211
G1 X183.174 Y128.074 E0.07211
G1 X181.275 Y129.372 E0.07211
G1 X179.279 Y130.514 E0.07211
G1 X177.198 Y131.493 E0.07211
G1 X175.046 Y132.303 E0.07211
G1 X172.835 Y132.938 E0.07211
G1 X170.581 Y133.395 E0.07211
G1 X168.295 Y133.670 E0.07219
G1 X165.992 Y133.762 E0.07229
G1 X84.008 Y133.762 E2.57054
G1 X81.705 Y133.670 E0.07229
G1 X79.419 Y133.395 E0.07219
G1 X77.165 Y132.938 E0.07211
G1 X74.954 Y132.303 E0.07211
G1 X72.802 Y131.493 E0.07211
G1 X70.721 Y130.514 E0.07211
G1 X68.725 Y129.372 E0.07209
G1 X66.723 Y127.991 E0.07627
G1 X65.037 Y126.629 E0.06795
G1 X63.369 Y125.045 E0.07211
G1 X61.834 Y123.334 E0.07211
G1 X60.440 Y121.505 E0.07209
G1 X59.133 Y119.453 E0.07627
G1 X58.110 Y117.542 E0.06795
G1 X57.190 Y115.435 E0.07211
G1 X56.442 Y113.260 E0.07211
G1 X55.869 Y111.033 E0.07211
G1 X55.477 Y108.767 E0.07211
G1 X55.266 Y106.476 E0.07211
G1 X55.239 Y104.177 E0.07211
G1 X55.396 Y101.883 E0.07209
G1 X55.765 Y99.479 E0.07627
G1 X56.255 Y97.367 E0.06795
G1 X56.953 Y95.176 E0.07211
G1 X57.823 Y93.047 E0.07211
G1 X58.860 Y90.995 E0.07211
G1 X60.058 Y89.031 E0.07211
G1 X61.409 Y87.170 E0.07211
G1 X62.905 Y85.423 E0.07211
G1 X64.535 Y83.801 E0.07209
G1 X66.397 Y82.236 E0.07627
G1 X68.157 Y80.972 E0.06795
G1 X70.126 Y79.783 E0.07211
G1 X72.183 Y78.755 E0.07211
G1 X74.316 Y77.896 E0.07211
G1 X76.511 Y77.209 E0.07211
G1 X78.754 Y76.699 E0.07211
G1 X81.030 Y76.371 E0.07211
G1 X83.325 Y76.225 E0.07211
G1 X85.625 Y76.263 E0.07211
G1 X87.914 Y76.484 E0.07211
G1 X90.178 Y76.888 E0.07211
G1 X92.403 Y77.471 E0.07211
G1 X94.574 Y78.230 E0.07211
G1 X96.679 Y79.161 E0.07218
G1 X98.582 Y80.211 E0.06814
G1 X98.780 Y80.613 F10800.000
G1 F8640.000
G1 X101.873 Y80.210 E-0.76000
G1 E-0.04000 F2100.00000
G1 Z0.800 F10800.000
G1 X188.164 Y87.426
G1 Z0.200
G1 E0.80000 F2100.00000
G1 F1200.000
G1 X185.018 Y84.287 E0.13972
G1 X183.304 Y82.834 E0.07064
G1 X182.357 Y82.154 E0.03665
G1 X188.838 Y88.635 E0.28814
G1 X189.392 Y89.398 E0.02965
G1 X189.902 Y90.233 E0.03076
G1 X180.754 Y81.085 E0.40673
G1 X179.436 Y80.302 E0.04819
M73 Q0 S118
G1 X190.678 Y91.544 E0.49982
M73 P0 R117
G1 X191.224 Y92.625 E0.03808
G1 X178.368 Y79.768 E0.57161
G1 X177.545 Y79.358 E0.02889
G1 X177.339 Y79.274 E0.00699
G1 X191.708 Y93.643 E0.63884
G1 X192.077 Y94.547 E0.03072
G1 X176.443 Y78.913 E0.69510
G1 X175.547 Y78.552 E0.03037
G1 X192.440 Y95.445 E0.75107
G1 X192.690 Y96.229 E0.02587
G1 X174.758 Y78.297 E0.79727
G1 X173.980 Y78.054 E0.02564
G1 X192.939 Y97.014 E0.84297
G1 X193.108 Y97.542 E0.01745
G1 X193.160 Y97.769 E0.00732
G1 X173.214 Y77.823 E0.88682
G1 X172.522 Y77.666 E0.02230
G1 X193.322 Y98.466 E0.92477
G1 X193.484 Y99.162 E0.02248
G1 X171.830 Y77.509 E0.96272
G1 X171.139 Y77.352 E0.02230
G1 X193.633 Y99.846 E1.00011
G1 X193.727 Y100.475 E0.01998
G1 X170.512 Y77.260 E1.03212
G1 X169.888 Y77.170 E0.01985
G1 X193.821 Y101.103 E1.06408
G1 X193.915 Y101.732 E0.01998
G1 X169.263 Y77.080 E1.09603
G1 X168.661 Y77.012 E0.01905
G1 X193.973 Y102.325 E1.12541
G1 X194.012 Y102.899 E0.01809
G1 X168.090 Y76.976 E1.15254
G1 X167.519 Y76.940 E0.01799
G1 X194.051 Y103.473 E1.17966
G1 X194.091 Y104.047 E0.01808
G1 X166.948 Y76.903 E1.20679
G1 X166.408 Y76.898 E0.01698
G1 X194.096 Y104.587 E1.23105
G1 X194.090 Y105.115 E0.01662
G1 X165.879 Y76.905 E1.25426
G1 X165.351 Y76.911 E0.01661
G1 X194.084 Y105.644 E1.27748
G1 X194.078 Y106.172 E0.01662
G1 X164.823 Y76.917 E1.30069
G1 X164.303 Y76.933 E0.01633
G1 X194.052 Y106.682 E1.32266
G1 X194.007 Y107.171 E0.01546
G1 X163.816 Y76.980 E1.34233
G1 X163.328 Y77.027 E0.01540
G1 X193.962 Y107.661 E1.36200
G1 X193.917 Y108.151 E0.01546
G1 X162.841 Y77.074 E1.38168
G1 X162.353 Y77.122 E0.01540
G1 X193.872 Y108.641 E1.40135
G1 X193.796 Y109.099 E0.01461
G1 X161.887 Y77.190 E1.41868
G1 X161.434 Y77.271 E0.01449
G1 X193.717 Y109.555 E1.43535
G1 X193.638 Y110.010 E0.01454
G1 X160.980 Y77.352 E1.45201
G1 X160.526 Y77.433 E0.01449
G1 X193.559 Y110.466 E1.46867
G1 X193.478 Y110.920 E0.01449
G1 X160.072 Y77.514 E1.48526
G1 X159.641 Y77.618 E0.01393
G1 X193.369 Y111.345 E1.49955
M73 Q1 S117
G1 X193.260 Y111.771 E0.01381
G1 X159.218 Y77.729 E1.51352
M73 P1 R116
G1 X158.794 Y77.840 E0.01377
G1 X193.150 Y112.196 E1.52750
G1 X193.041 Y112.621 E0.01381
G1 X158.370 Y77.951 E1.54147
G1 X157.947 Y78.062 E0.01377
G1 X192.932 Y113.047 E1.55545
G1 X192.796 Y113.446 E0.01326
G1 X157.540 Y78.190 E1.56749
G1 X157.144 Y78.329 E0.01319
G1 X192.659 Y113.844 E1.57902
G1 X192.522 Y114.242 E0.01323
G1 X156.748 Y78.467 E1.59055
G1 X156.352 Y78.606 E0.01319
G1 X192.385 Y114.639 E1.60207
G1 X192.249 Y115.037 E0.01323
G1 X155.956 Y78.744 E1.61360
G1 X155.567 Y78.890 E0.01306
G1 X192.096 Y115.420 E1.62413
G1 X191.934 Y115.792 E0.01277
G1 X155.196 Y79.054 E1.63339
G1 X154.825 Y79.218 E0.01274
G1 X191.771 Y116.164 E1.64265
G1 X191.609 Y116.536 E0.01277
G1 X154.454 Y79.382 E1.65191
G1 X154.083 Y79.546 E0.01274
G1 X191.446 Y116.909 E1.66118
G1 X191.282 Y117.279 E0.01274
G1 X153.713 Y79.709 E1.67036
G1 X153.361 Y79.893 E0.01246
G1 X191.096 Y117.627 E1.67770
G1 X190.909 Y117.976 E0.01242
G1 X153.017 Y80.083 E1.68474
G1 X152.672 Y80.273 E0.01237
G1 X190.723 Y118.324 E1.69177
G1 X190.537 Y118.672 E0.01242
G1 X152.327 Y80.463 E1.69880
G1 X151.983 Y80.653 E0.01237
G1 X190.350 Y119.020 E1.70583
G1 X190.155 Y119.360 E0.01231
G1 X151.638 Y80.843 E1.71248
G1 X151.535 Y80.900 E0.00372
G1 X151.160 Y80.899 E0.01179
G1 X189.946 Y119.685 E1.72445
G1 X189.737 Y120.011 E0.01216
G1 X150.623 Y80.898 E1.73899
M73 Q2 S116
G1 X150.087 Y80.896 E0.01686
G1 X189.527 Y120.336 E1.75353
M73 P2 R115
G1 X189.318 Y120.662 E0.01216
G1 X149.551 Y80.895 E1.76806
G1 X149.015 Y80.893 E0.01686
G1 X189.109 Y120.987 E1.78260
G1 X188.887 Y121.300 E0.01206
G1 X148.479 Y80.892 E1.79657
G1 X147.942 Y80.890 E0.01686
G1 X188.656 Y121.603 E1.81013
G1 X188.424 Y121.907 E0.01199
G1 X147.406 Y80.889 E1.82368
G1 X146.870 Y80.887 E0.01686
G1 X188.193 Y122.210 E1.83724
G1 X187.962 Y122.514 E0.01199
G1 X146.334 Y80.886 E1.85080
G1 X145.798 Y80.884 E0.01686
G1 X187.730 Y122.817 E1.86435
G1 X187.484 Y123.106 E0.01192
G1 X145.261 Y80.883 E1.87725
G1 X144.725 Y80.881 E0.01686
G1 X187.231 Y123.388 E1.88985
G1 X186.979 Y123.669 E0.01190
G1 X144.189 Y80.880 E1.90244
G1 X143.653 Y80.878 E0.01686
G1 X186.726 Y123.951 E1.91504
G1 X186.473 Y124.233 E0.01190
G1 X143.117 Y80.877 E1.92764
G1 X142.580 Y80.875 E0.01686
G1 X186.220 Y124.515 E1.94023
G1 X185.951 Y124.781 E0.01189
G1 X142.044 Y80.874 E1.95212
G1 X141.508 Y80.872 E0.01686
G1 X185.677 Y125.041 E1.96376
G1 X185.402 Y125.301 E0.01189
G1 X140.972 Y80.871 E1.97541
G1 X140.436 Y80.869 E0.01686
G1 X185.128 Y125.562 E1.98705
G1 X184.854 Y125.822 E0.01189
G1 X139.900 Y80.868 E1.99867
M73 Q3 S115
G1 X139.365 Y80.868 E0.01681
G1 X184.580 Y126.083 E2.01025
M73 P3 R114
G1 X184.288 Y126.326 E0.01194
G1 X138.831 Y80.868 E2.02106
G1 X138.296 Y80.868 E0.01681
G1 X183.992 Y126.565 E2.03168
G1 X183.697 Y126.804 E0.01195
G1 X137.761 Y80.868 E2.04231
G1 X137.227 Y80.868 E0.01681
G1 X183.401 Y127.043 E2.05293
G1 X183.105 Y127.282 E0.01195
G1 X136.692 Y80.868 E2.06356
G1 X136.157 Y80.868 E0.01681
G1 X182.809 Y127.521 E2.07418
G1 X182.494 Y127.740 E0.01208
G1 X135.622 Y80.868 E2.08393
G1 X135.088 Y80.868 E0.01681
G1 X182.176 Y127.957 E2.09358
G1 X181.859 Y128.174 E0.01209
G1 X134.553 Y80.868 E2.10323
G1 X134.018 Y80.868 E0.01681
G1 X181.541 Y128.391 E2.11289
G1 X181.224 Y128.608 E0.01209
G1 X133.484 Y80.868 E2.12254
G1 X132.949 Y80.868 E0.01681
G1 X180.905 Y128.824 E2.13213
G1 X180.564 Y129.019 E0.01232
G1 X132.414 Y80.868 E2.14079
G1 X131.880 Y80.868 E0.01681
G1 X180.224 Y129.213 E2.14944
G1 X179.884 Y129.408 E0.01232
G1 X131.345 Y80.868 E2.15809
G1 X130.810 Y80.868 E0.01681
G1 X179.544 Y129.602 E2.16674
G1 X179.204 Y129.797 E0.01232
G1 X130.275 Y80.868 E2.17539
M73 Q4 S114
G1 X129.741 Y80.868 E0.01681
G1 X178.856 Y129.984 E2.18370
M73 P4 R113
G1 X178.493 Y130.155 E0.01263
G1 X129.206 Y80.868 E2.19131
G1 X128.671 Y80.868 E0.01681
G1 X178.129 Y130.326 E2.19892
G1 X177.765 Y130.497 E0.01263
