; generated by PrusaSlicer 2.2.0+win64 on 2020-11-09 at 08:44:18 UTC

; 

; external perimeters extrusion width = 0.45mm
; perimeters extrusion width = 0.45mm
; infill extrusion width = 0.45mm
; solid infill extrusion width = 0.45mm
; top infill extrusion width = 0.40mm
; first layer extrusion width = 0.42mm

M73 P0 R20
M73 Q0 S20
M201 X1000 Y1000 Z1000 E5000 ; sets maximum accelerations, mm/sec^2
M203 X200 Y200 Z12 E120 ; sets maximum feedrates, mm/sec
M204 P1250 R1250 T1250 ; sets acceleration (P, T) and retract acceleration (R), mm/sec^2
M205 X8.00 Y8.00 Z0.40 E4.50 ; sets the jerk limits, mm/sec
M205 S0 T0 ; sets the minimum extruding and travel feed rate, mm/sec
M107
M862.3 P "MK3S" ; printer model check
M862.1 P0.4 ; nozzle diameter check
M115 U3.8.1 ; tell printer latest fw version
G90 ; use absolute coordinates
M83 ; extruder relative mode
M104 S215 ; set extruder temp
M140 S60 ; set bed temp
M190 S60 ; wait for bed temp
M109 S215 ; wait for extruder temp
G28 W ; home all without mesh bed level
G80 ; mesh bed leveling
G1 Y-3.0 F1000.0 ; go outside print area
G92 E0.0
G1 X60.0 E9.0 F1000.0 ; intro line
M73 Q0 S20
M73 P0 R20
G1 X100.0 E12.5 F1000.0 ; intro line
G92 E0.0
M221 S95
G21 ; set units to millimeters
G90 ; use absolute coordinates
M83 ; use relative distances for extrusion
M900 K30 ; Filament gcode
;BEFORE_LAYER_CHANGE
G92 E0.0
;0.2


G1 E-0.80000 F2100.00000
G1 Z0.600 F10800.000
;AFTER_LAYER_CHANGE
;0.2
G1 X112.139 Y88.041
G1 Z0.200
G1 E0.80000 F2100.00000
M204 S1000
G1 F1200.000
G1 X112.552 Y87.528 E0.02065
G1 X113.075 Y87.128 E0.02065
G1 X113.674 Y86.865 E0.02052
G1 X114.323 Y86.750 E0.02065
G1 X135.529 Y86.746 E0.66491
G1 X136.538 Y86.939 E0.03221
G1 X137.409 Y87.491 E0.03233
G1 X138.016 Y88.325 E0.03233
G1 X138.273 Y89.323 E0.03233
G1 X138.229 Y120.538 E0.97873
G1 X138.117 Y121.278 E0.02345
G1 X137.812 Y121.957 E0.02333
G1 X137.388 Y122.481 E0.02116
G1 X136.852 Y122.885 E0.02103
G1 X136.235 Y123.147 E0.02103
G1 X135.573 Y123.252 E0.02103
G1 X114.426 Y123.254 E0.66305
G1 X113.695 Y123.141 E0.02320
G1 X113.016 Y122.836 E0.02333
G1 X112.489 Y122.408 E0.02129
G1 X112.083 Y121.864 E0.02129
G1 X111.822 Y121.238 E0.02129
G1 X111.722 Y120.570 E0.02116
G1 X111.721 Y89.463 E0.97535
G1 X111.833 Y88.723 E0.02345
G1 X112.114 Y88.096 E0.02157
G1 X112.195 Y88.827 F10800.000
G1 F1200.000
G1 X112.464 Y88.232 E0.02048
G1 X112.824 Y87.790 E0.01787
G1 X113.278 Y87.446 E0.01787
G1 X113.798 Y87.221 E0.01775
G1 X114.360 Y87.126 E0.01787
G1 X135.529 Y87.123 E0.66374
G1 X136.406 Y87.292 E0.02802
G1 X137.159 Y87.774 E0.02802
G1 X137.681 Y88.499 E0.02802
G1 X137.898 Y89.366 E0.02802
G1 X137.852 Y120.531 E0.97718
G1 X137.754 Y121.177 E0.02048
G1 X137.485 Y121.768 E0.02036
G1 X137.117 Y122.218 E0.01823
G1 X136.655 Y122.564 E0.01811
G1 X136.122 Y122.787 E0.01811
G1 X135.547 Y122.876 E0.01823
G1 X114.437 Y122.877 E0.66191
G1 X113.799 Y122.779 E0.02024
G1 X113.207 Y122.511 E0.02036
G1 X112.755 Y122.140 E0.01835
G1 X112.406 Y121.670 E0.01835
G1 X112.183 Y121.130 E0.01835
G1 X112.098 Y120.551 E0.01835
G1 X112.098 Y89.473 E0.97441
G1 X112.186 Y88.887 E0.01860
G1 F8640.000
G1 X112.464 Y88.232 E-0.16417
G1 X112.824 Y87.790 E-0.13161
G1 X113.278 Y87.446 E-0.13161
G1 X113.798 Y87.221 E-0.13074
G1 X114.360 Y87.126 E-0.13161
G1 X114.664 Y87.126 E-0.07026
G1 E-0.04000 F2100.00000
G1 Z0.800 F10800.000
G1 X110.174 Y97.460
G1 Z0.200
G1 E0.80000 F2100.00000
G1 F1200.000
G1 X110.008 Y97.107 E0.01225
G1 X109.762 Y95.953 E0.03700
G1 X109.762 Y88.973 E0.21885
G1 X110.298 Y87.234 E0.05704
G1 X110.879 Y86.427 E0.03120
G1 X111.917 Y85.504 E0.04355
G1 X112.936 Y85.009 E0.03553
G1 X114.028 Y84.786 E0.03492
G1 X136.012 Y84.790 E0.68929
G1 X136.960 Y84.974 E0.03028
G1 X137.868 Y85.365 E0.03101
G1 X139.087 Y86.388 E0.04990
G1 X139.878 Y87.606 E0.04551
G1 X140.238 Y88.989 E0.04481
G1 X140.238 Y96.017 E0.22038
G1 X139.877 Y97.393 E0.04459
G1 X139.808 Y97.536 E0.00500
G1 X140.188 Y98.983 E0.04689
G1 X140.188 Y121.027 E0.69119
G1 X139.654 Y122.763 E0.05693
G1 X139.094 Y123.549 E0.03027
G1 X138.233 Y124.355 E0.03698
G1 X137.408 Y124.832 E0.02987
G1 X136.004 Y125.213 E0.04561
G1 X113.948 Y125.213 E0.69156
G1 X112.212 Y124.679 E0.05693
G1 X111.426 Y124.119 E0.03027
G1 X110.620 Y123.258 E0.03698
G1 X110.143 Y122.433 E0.02987
G1 X109.762 Y121.029 E0.04561
G1 X109.762 Y98.984 E0.69123
G1 X110.158 Y97.518 E0.04759
G1 F8640.000
G1 X110.008 Y97.107 E-0.10115
G1 X109.762 Y95.953 E-0.27248
G1 X109.762 Y94.280 E-0.38637
G1 E-0.04000 F2100.00000
G1 Z0.800 F10800.000
G1 X139.373 Y97.540
G1 Z0.200
G1 E0.80000 F2100.00000
G1 F1200.000
G1 X139.469 Y97.727 E0.00660
G1 X139.811 Y99.008 E0.04156
G1 X139.811 Y120.999 E0.68952
G1 X139.329 Y122.570 E0.05152
G1 X138.821 Y123.288 E0.02758
G1 X138.023 Y124.041 E0.03441
G1 X137.283 Y124.475 E0.02690
G1 X135.978 Y124.836 E0.04244
G1 X113.976 Y124.836 E0.68987
G1 X112.405 Y124.354 E0.05152
G1 X111.687 Y123.846 E0.02758
G1 X110.934 Y123.048 E0.03441
G1 X110.500 Y122.308 E0.02690
G1 X110.139 Y121.003 E0.04244
G1 X110.139 Y99.008 E0.68965
G1 X110.480 Y97.732 E0.04142
G1 X110.609 Y97.488 E0.00863
G1 X110.371 Y97.003 E0.01695
G1 X110.139 Y95.932 E0.03435
G1 X110.139 Y89.001 E0.21733
G1 X110.622 Y87.428 E0.05159
G1 X111.147 Y86.693 E0.02832
G1 X112.107 Y85.830 E0.04048
G1 X113.037 Y85.373 E0.03247
G1 X114.047 Y85.164 E0.03235
G1 X135.993 Y85.167 E0.68809
G1 X136.866 Y85.340 E0.02791
G1 X137.691 Y85.699 E0.02823
G1 X138.822 Y86.658 E0.04647
G1 X139.521 Y87.732 E0.04018
G1 X139.861 Y89.013 E0.04157
G1 X139.861 Y95.992 E0.21881
G1 X139.520 Y97.269 E0.04144
G1 X139.402 Y97.487 E0.00777
G1 X138.935 Y97.539 F10800.000
G1 F1200.000
G1 X139.112 Y97.854 E0.01132
G1 X139.434 Y99.033 E0.03834
G1 X139.434 Y120.971 E0.68784
G1 X139.003 Y122.378 E0.04614
G1 X138.547 Y123.028 E0.02490
G1 X137.810 Y123.728 E0.03187
G1 X137.155 Y124.120 E0.02392
G1 X135.952 Y124.459 E0.03921
G1 X114.004 Y124.459 E0.68816
G1 X112.597 Y124.028 E0.04614
G1 X111.947 Y123.572 E0.02490
G1 X111.247 Y122.835 E0.03187
G1 X110.855 Y122.180 E0.02392
G1 X110.516 Y120.977 E0.03921
G1 X110.516 Y99.033 E0.68802
G1 X110.836 Y97.857 E0.03824
G1 X111.039 Y97.501 E0.01283
G1 X110.734 Y96.897 E0.02122
G1 X110.516 Y95.911 E0.03165
G1 X110.516 Y89.029 E0.21579
G1 X110.948 Y87.621 E0.04619
G1 X111.416 Y86.957 E0.02547
G1 X112.300 Y86.155 E0.03741
G1 X113.139 Y85.737 E0.02941
G1 X114.067 Y85.541 E0.02974
G1 X135.974 Y85.544 E0.68686
G1 X136.771 Y85.705 E0.02549
G1 X137.513 Y86.033 E0.02545
G1 X138.555 Y86.926 E0.04302
G1 X139.188 Y87.910 E0.03669
G1 X139.484 Y89.038 E0.03655
G1 X139.484 Y95.967 E0.21726
G1 X139.164 Y97.143 E0.03824
G1 X138.965 Y97.487 E0.01246
G1 X138.492 Y97.539 F10800.000
G1 F1200.000
G1 X138.757 Y97.982 E0.01617
G1 X139.057 Y99.060 E0.03508
G1 X139.057 Y120.943 E0.68614
G1 X138.677 Y122.187 E0.04080
G1 X138.272 Y122.769 E0.02223
G1 X137.596 Y123.418 E0.02937
G1 X137.026 Y123.765 E0.02093
G1 X135.925 Y124.082 E0.03592
G1 X114.032 Y124.082 E0.68643
G1 X112.788 Y123.702 E0.04080
G1 X112.206 Y123.297 E0.02223
G1 X111.557 Y122.621 E0.02937
G1 X111.210 Y122.051 E0.02093
G1 X110.893 Y120.950 E0.03592
G1 X110.893 Y99.060 E0.68635
G1 X111.192 Y97.984 E0.03499
G1 X111.472 Y97.515 E0.01713
G1 X111.096 Y96.789 E0.02564
G1 X110.893 Y95.890 E0.02890
G1 X110.893 Y89.057 E0.21424
G1 X111.274 Y87.812 E0.04082
G1 X111.687 Y87.220 E0.02264
G1 X112.492 Y86.481 E0.03428
G1 X113.285 Y86.085 E0.02779
G1 X114.086 Y85.918 E0.02565
G1 X135.954 Y85.921 E0.68565
G1 X136.673 Y86.070 E0.02304
G1 X137.333 Y86.365 E0.02266
G1 X138.287 Y87.192 E0.03960
G1 X138.831 Y88.037 E0.03149
G1 X139.107 Y89.063 E0.03331
G1 X139.107 Y95.940 E0.21564
G1 X138.808 Y97.016 E0.03499
G1 X138.523 Y97.488 E0.01729
G1 F8640.000
G1 X138.757 Y97.982 E-0.12617
G1 X139.057 Y99.060 E-0.25833
G1 X139.057 Y100.686 E-0.37550
G1 E-0.04000 F2100.00000
G1 Z0.800 F10800.000
G1 X111.533 Y96.821
G1 Z0.200
G1 E0.80000 F2100.00000
G1 F1200.000
G1 X111.457 Y96.679 E0.00505
G1 X111.270 Y95.868 E0.02609
G1 X111.270 Y89.085 E0.21268
G1 X111.601 Y88.002 E0.03551
G1 X111.960 Y87.481 E0.01983
G1 X112.687 Y86.804 E0.03116
G1 X113.389 Y86.448 E0.02467
G1 X114.106 Y86.295 E0.02300
G1 X135.935 Y86.298 E0.68441
G1 X136.538 Y86.423 E0.01932
G1 X137.153 Y86.697 E0.02110
G1 X138.017 Y87.457 E0.03609
G1 X138.497 Y88.214 E0.02809
G1 X138.730 Y89.087 E0.02835
G1 X138.730 Y95.914 E0.21404
G1 X138.451 Y96.888 E0.03179
G1 F8640.000
G1 X138.730 Y95.914 E-0.23411
G1 X138.730 Y93.636 E-0.52589
G1 E-0.04000 F2100.00000
G1 Z0.800 F10800.000
G1 X138.449 Y98.277
G1 Z0.200
G1 E0.80000 F2100.00000
G1 F1200.000
G1 X138.680 Y99.086 E0.02638
G1 X138.680 Y120.915 E0.68442
G1 X138.349 Y121.998 E0.03550
G1 X137.996 Y122.512 E0.01957
G1 X137.379 Y123.109 E0.02691
G1 X136.893 Y123.411 E0.01794
G1 X135.897 Y123.705 E0.03256
G1 X114.060 Y123.705 E0.68469
G1 X112.977 Y123.374 E0.03550
G1 X112.463 Y123.021 E0.01957
G1 X111.866 Y122.404 E0.02691
G1 X111.564 Y121.918 E0.01794
G1 X111.270 Y120.922 E0.03256
G1 X111.270 Y99.086 E0.68464
G1 X111.533 Y98.164 E0.03007
G1 X112.287 Y97.696 F10800.000
G1 F1200.000
G1 X112.477 Y97.498 E0.00862
G1 X112.287 Y97.291 E0.00879
G1 F8640.000
G1 X112.477 Y97.498 E-0.06473
G1 X112.287 Y97.696 E-0.06346
G1 E-0.67181 F2100.00000
G1 Z0.800 F10800.000
G1 X137.698 Y97.319
G1 Z0.200
G1 E0.80000 F2100.00000
G1 F1200.000
G1 X137.496 Y97.530 E0.00915
G1 X137.697 Y97.732 E0.00895
G1 X137.696 Y98.395 F10800.000
G1 F1200.000
G1 X137.457 Y98.020 E0.01395
G1 X136.952 Y97.539 E0.02185
G1 X137.516 Y96.969 E0.02512
G1 X137.699 Y96.680 E0.01074
G1 F8640.000
G1 X137.516 Y96.969 E-0.07906
G1 X136.952 Y97.539 E-0.18502
G1 X137.457 Y98.020 E-0.16088
G1 X137.696 Y98.395 E-0.10272
G1 E-0.27232 F2100.00000
G1 Z0.800 F10800.000
G1 X112.287 Y96.634
G1 Z0.200
G1 E0.80000 F2100.00000
G1 F1200.000
G1 X112.421 Y96.889 E0.00904
G1 X113.007 Y97.502 E0.02656
G1 X112.484 Y98.031 E0.02331
G1 X112.287 Y98.343 E0.01158
G1 F8640.000
G1 X112.484 Y98.031 E-0.08527
G1 X113.007 Y97.502 E-0.17165
G1 X112.421 Y96.889 E-0.19558
G1 X112.287 Y96.634 E-0.06660
G1 E-0.28089 F2100.00000
G1 Z0.800 F10800.000
G1 X136.223 Y97.502
G1 Z0.200
G1 E0.80000 F2100.00000
G1 F1200.000
G1 X136.588 Y97.713 E0.01319
G1 X137.179 Y98.276 E0.02559
G1 X137.383 Y98.603 E0.01210
G1 X137.549 Y99.168 E0.01845
G1 X137.549 Y120.831 E0.67922
G1 X137.362 Y121.440 E0.01997
G1 X137.159 Y121.749 E0.01160
G1 X136.706 Y122.199 E0.02001
G1 X136.473 Y122.358 E0.00886
G1 X135.808 Y122.574 E0.02191
G1 X114.144 Y122.574 E0.67926
G1 X113.535 Y122.387 E0.01997
G1 X113.226 Y122.184 E0.01160
G1 X112.776 Y121.731 E0.02001
G1 X112.617 Y121.498 E0.00886
G1 X112.401 Y120.833 E0.02191
G1 X112.401 Y99.168 E0.67930
G1 X112.567 Y98.603 E0.01845
G1 X112.768 Y98.280 E0.01194
G1 X113.224 Y97.819 E0.02033
G1 X113.681 Y97.486 E0.01772
G1 X113.227 Y97.185 E0.01708
G1 X112.742 Y96.688 E0.02177
G1 X112.493 Y96.217 E0.01670
G1 X112.401 Y95.806 E0.01322
G1 X112.401 Y89.169 E0.20809
G1 X112.588 Y88.560 E0.01997
G1 X112.791 Y88.252 E0.01158
G1 X113.287 Y87.767 E0.02176
G1 X113.758 Y87.518 E0.01670
G1 X114.169 Y87.426 E0.01322
G1 X135.871 Y87.430 E0.68043
G1 X136.230 Y87.513 E0.01157
G1 X136.596 Y87.685 E0.01268
G1 X137.201 Y88.243 E0.02580
G1 X137.433 Y88.605 E0.01347
G1 X137.599 Y89.168 E0.01841
G1 X137.599 Y95.832 E0.20894
G1 X137.433 Y96.397 E0.01845
G1 X137.232 Y96.720 E0.01194
G1 X136.755 Y97.202 E0.02126
G1 X136.276 Y97.473 E0.01726
G1 X136.357 Y98.013 F10800.000
G1 F1200.000
G1 X136.876 Y98.501 E0.02233
G1 X137.031 Y98.742 E0.00898
G1 X137.172 Y99.198 E0.01495
G1 X137.172 Y120.802 E0.67740
G1 X137.031 Y121.258 E0.01496
G1 X136.877 Y121.498 E0.00892
G1 X136.471 Y121.904 E0.01800
G1 X136.321 Y122.012 E0.00579
G1 X135.776 Y122.197 E0.01806
G1 X114.173 Y122.197 E0.67736
M73 Q5 S19
M73 P5 R19
G1 X113.717 Y122.056 E0.01496
G1 X113.477 Y121.902 E0.00892
G1 X113.071 Y121.496 E0.01800
G1 X112.963 Y121.346 E0.00579
G1 X112.778 Y120.801 E0.01806
G1 X112.778 Y99.198 E0.67736
G1 X112.919 Y98.742 E0.01496
G1 X113.073 Y98.502 E0.00892
G1 X113.479 Y98.096 E0.01800
G1 X113.629 Y97.988 E0.00579
G1 X114.174 Y97.803 E0.01806
G1 X135.799 Y97.807 E0.67804
G1 X136.037 Y97.862 E0.00767
G1 X136.303 Y97.988 E0.00921
G1 X135.894 Y98.211 F10800.000
G1 F1200.000
G1 X136.167 Y98.340 E0.00947
G1 X136.598 Y98.757 E0.01880
G1 X136.682 Y98.885 E0.00479
G1 X136.795 Y99.229 E0.01136
G1 X136.795 Y120.771 E0.67541
G1 X136.682 Y121.115 E0.01136
G1 X136.597 Y121.244 E0.00484
G1 X136.217 Y121.625 E0.01686
G1 X136.127 Y121.688 E0.00345
G1 X135.744 Y121.820 E0.01270
G1 X114.204 Y121.820 E0.67537
G1 X113.860 Y121.707 E0.01136
G1 X113.731 Y121.622 E0.00484
G1 X113.350 Y121.242 E0.01686
G1 X113.287 Y121.152 E0.00345
G1 X113.155 Y120.769 E0.01270
G1 X113.155 Y99.229 E0.67537
G1 X113.268 Y98.885 E0.01136
G1 X113.353 Y98.756 E0.00484
G1 X113.733 Y98.375 E0.01686
G1 X113.823 Y98.312 E0.00345
G1 X114.206 Y98.180 E0.01269
G1 X135.777 Y98.184 E0.67635
G1 X135.835 Y98.198 E0.00189
G1 X135.757 Y98.564 F10800.000
G1 F1200.000
G1 X135.975 Y98.667 E0.00757
G1 X136.318 Y99.010 E0.01522
G1 X136.418 Y99.264 E0.00856
G1 X136.418 Y120.736 E0.67321
G1 X136.318 Y120.990 E0.00856
G1 X135.965 Y121.343 E0.01566
G1 X135.711 Y121.443 E0.00856
G1 X114.239 Y121.443 E0.67321
G1 X113.985 Y121.343 E0.00856
G1 X113.632 Y120.990 E0.01566
G1 X113.532 Y120.736 E0.00856
G1 X113.532 Y99.264 E0.67321
G1 X113.632 Y99.010 E0.00856
G1 X113.985 Y98.657 E0.01566
G1 X114.239 Y98.557 E0.00856
G1 X135.697 Y98.557 E0.67280
G1 X135.738 Y98.963 F10800.000
G1 F1200.000
G1 X136.012 Y99.237 E0.01215
G1 X136.041 Y99.306 E0.00235
G1 X136.041 Y120.694 E0.67059
G1 X136.012 Y120.763 E0.00235
G1 X135.738 Y121.037 E0.01215
G1 X135.669 Y121.066 E0.00235
G1 X114.281 Y121.066 E0.67059
G1 X114.212 Y121.037 E0.00235
G1 X113.938 Y120.763 E0.01215
G1 X113.909 Y120.694 E0.00235
G1 X113.909 Y99.306 E0.67059
G1 X113.938 Y99.237 E0.00235
G1 X114.212 Y98.963 E0.01215
G1 X114.281 Y98.934 E0.00235
G1 X135.683 Y98.940 E0.67102
G1 X135.553 Y99.311 F10800.000
G1 F1200.000
G1 X135.664 Y99.422 E0.00490
G1 X135.664 Y120.578 E0.66334
G1 X135.553 Y120.689 E0.00490
G1 X114.397 Y120.689 E0.66334
G1 X114.286 Y120.578 E0.00490
G1 X114.286 Y99.422 E0.66334
G1 X114.397 Y99.311 E0.00490
G1 X135.493 Y99.311 E0.66146
G1 F8640.000
G1 X135.664 Y99.422 E-0.04690
G1 X135.664 Y102.510 E-0.71310
G1 E-0.04000 F2100.00000
G1 Z0.800 F10800.000
G1 X136.511 Y96.914
G1 Z0.200
G1 E0.80000 F2100.00000
G1 F1200.000
G1 X136.089 Y97.136 E0.01496
G1 X135.811 Y97.197 E0.00892
G1 X114.173 Y97.197 E0.67846
G1 X113.717 Y97.056 E0.01496
G1 X113.477 Y96.902 E0.00892
G1 X113.061 Y96.486 E0.01845
G1 X112.839 Y96.064 E0.01496
G1 X112.778 Y95.786 E0.00892
G1 X112.778 Y89.198 E0.20658
G1 X112.919 Y88.742 E0.01496
G1 X113.073 Y88.502 E0.00892
G1 X113.489 Y88.086 E0.01845
G1 X113.911 Y87.864 E0.01496
G1 X114.189 Y87.803 E0.00892
G1 X135.849 Y87.807 E0.67914
G1 X136.087 Y87.862 E0.00767
G1 X136.407 Y88.013 E0.01109
G1 X136.926 Y88.501 E0.02233
G1 X137.081 Y88.742 E0.00898
G1 X137.222 Y89.198 E0.01495
G1 X137.222 Y95.802 E0.20709
G1 X137.081 Y96.258 E0.01496
G1 X136.927 Y96.498 E0.00892
G1 X136.553 Y96.871 E0.01657
G1 X135.943 Y96.788 F10800.000
G1 F1200.000
G1 X135.792 Y96.820 E0.00484
G1 X114.204 Y96.820 E0.67688
G1 X113.860 Y96.707 E0.01136
G1 X113.731 Y96.622 E0.00484
G1 X113.350 Y96.242 E0.01687
G1 X113.187 Y95.918 E0.01136
G1 X113.155 Y95.767 E0.00484
G1 X113.155 Y89.229 E0.20499
G1 X113.268 Y88.885 E0.01136
G1 X113.353 Y88.756 E0.00484
G1 X113.733 Y88.375 E0.01687
G1 X114.057 Y88.212 E0.01136
G1 X114.208 Y88.180 E0.00484
G1 X135.827 Y88.184 E0.67785
G1 X135.944 Y88.211 E0.00377
G1 X136.217 Y88.340 E0.00947
G1 X136.648 Y88.757 E0.01880
G1 X136.732 Y88.885 E0.00479
G1 X136.845 Y89.229 E0.01136
G1 X136.845 Y95.771 E0.20510
G1 X136.732 Y96.115 E0.01136
G1 X136.647 Y96.244 E0.00484
G1 X136.267 Y96.625 E0.01687
G1 X135.997 Y96.761 E0.00948
G1 X135.837 Y96.422 F10800.000
G1 F1200.000
G1 X135.775 Y96.443 E0.00205
G1 X114.239 Y96.443 E0.67523
G1 X113.985 Y96.343 E0.00856
G1 X113.642 Y96.000 E0.01522
G1 X113.532 Y95.750 E0.00856
G1 X113.532 Y89.264 E0.20334
G1 X113.632 Y89.010 E0.00856
