;FLAVOR:UltiGCode
;TIME:6564
;MATERIAL:10610
;MATERIAL2:0
;NOZZLE_DIAMETER:0.4
;MINX:79.647
;MINY:27.542
;MINZ:0.27
;MAXX:143.353
;MAXY:131.85
;MAXZ:37.47
;Generated with Cura_SteamEngine 4.6.2
M82 ;absolute extrusion mode
G0 F3000 Y50 ;avoid prime blob
G92 E0
G92 E0
G10
;LAYER_COUNT:249
;LAYER:0
M107
G0 F4500 X83.489 Y32.43 Z0.27
;TYPE:SKIRT
G11
G1 F1800 X83.836 Y31.717 E0.07493
G1 X84.254 Y31.042 E0.14996
G1 X84.737 Y30.413 E0.22491
G1 X85.164 Y29.952 E0.28429
G1 X85.855 Y29.316 E0.37303
G1 X86.494 Y28.846 E0.448
G1 X87.178 Y28.443 E0.52302
G1 X87.898 Y28.11 E0.59798
G1 X88.648 Y27.852 E0.67293
G1 X89.421 Y27.67 E0.74798
G1 X90.207 Y27.567 E0.82289
G1 X90.835 Y27.542 E0.88229
G1 X111.579 Y27.542 E2.84259
G1 X112.371 Y27.582 E2.91753
G1 X113.156 Y27.701 E2.99256
G1 X113.924 Y27.899 E3.06751
G1 X114.669 Y28.174 E3.14256
G1 X115.382 Y28.521 E3.21749
G1 X116.057 Y28.939 E3.29252
G1 X116.686 Y29.422 E3.36746
G1 X117.147 Y29.849 E3.42684
G1 X117.783 Y30.54 E3.51559
G1 X118.253 Y31.179 E3.59055
G1 X118.656 Y31.863 E3.66558
G1 X118.989 Y32.583 E3.74054
G1 X119.247 Y33.333 E3.81549
G1 X119.429 Y34.106 E3.89054
G1 X119.532 Y34.892 E3.96545
G1 X119.557 Y35.52 E4.02484
G1 X119.557 Y53.542 E5.72792
G1 X124.443 Y53.542 E6.18965
G1 X125.235 Y53.582 E6.26459
G1 X126.02 Y53.701 E6.33962
G1 X126.788 Y53.899 E6.41457
G1 X127.533 Y54.174 E6.48961
G1 X128.246 Y54.521 E6.56455
G1 X128.921 Y54.939 E6.63958
G1 X129.55 Y55.422 E6.71452
G1 X130.011 Y55.849 E6.7739
G1 X130.647 Y56.54 E6.86265
G1 X131.117 Y57.179 E6.93761
G1 X131.52 Y57.863 E7.01263
G1 X131.853 Y58.583 E7.0876
G1 X132.111 Y59.333 E7.16255
G1 X132.293 Y60.106 E7.23759
G1 X132.396 Y60.892 E7.31251
G1 X132.421 Y61.52 E7.3719
G1 X132.422 Y80.264 E9.14321
G1 X132.382 Y81.056 E9.21815
G1 X132.263 Y81.84 E9.29308
G1 X132.065 Y82.609 E9.36812
G1 X131.791 Y83.354 E9.44314
G1 X131.443 Y84.067 E9.51811
G1 X131.025 Y84.741 E9.59306
G1 X130.542 Y85.371 E9.66808
G1 X130.115 Y85.832 E9.72746
G1 X129.424 Y86.468 E9.81621
G1 X128.785 Y86.938 E9.89117
G1 X128.101 Y87.341 E9.96619
G1 X127.381 Y87.674 E10.04116
G1 X126.631 Y87.932 E10.11611
G1 X125.858 Y88.114 E10.19115
G1 X125.072 Y88.217 E10.26606
G1 X124.444 Y88.242 E10.32546
G1 X114.835 Y88.242 E11.23351
G1 X114.043 Y88.202 E11.30845
G1 X113.258 Y88.083 E11.38348
G1 X112.49 Y87.885 E11.45843
G1 X112.207 Y87.78 E11.48695
G1 X111.766 Y87.932 E11.53103
G1 X110.993 Y88.114 E11.60608
G1 X110.207 Y88.217 E11.68099
G1 X109.579 Y88.242 E11.74038
G1 X90.835 Y88.242 E13.51169
G1 X90.043 Y88.202 E13.58663
G1 X89.258 Y88.083 E13.66166
G1 X88.49 Y87.885 E13.73661
G1 X87.745 Y87.61 E13.81166
G1 X87.032 Y87.263 E13.88659
G1 X86.357 Y86.845 E13.96162
G1 X85.728 Y86.362 E14.03656
G1 X85.267 Y85.935 E14.09594
G1 X84.631 Y85.244 E14.18469
G1 X84.161 Y84.605 E14.25965
G1 X83.758 Y83.921 E14.33467
G1 X83.425 Y83.201 E14.40964
G1 X83.167 Y82.451 E14.48459
G1 X82.985 Y81.678 E14.55964
G1 X82.882 Y80.892 E14.63455
G1 X82.857 Y80.264 E14.69394
G1 X82.857 Y61.52 E16.46525
G1 X82.897 Y60.728 E16.54019
G1 X83.016 Y59.943 E16.61522
G1 X83.214 Y59.175 E16.69017
G1 X83.319 Y58.892 E16.71869
G1 X83.167 Y58.451 E16.76277
G1 X82.985 Y57.678 E16.83782
G1 X82.882 Y56.892 E16.91273
G1 X82.857 Y56.264 E16.97212
G1 X82.857 Y35.52 E18.93243
G1 X82.897 Y34.728 E19.00737
G1 X83.016 Y33.943 E19.0824
G1 X83.214 Y33.175 E19.15735
G1 X83.489 Y32.43 E19.2324
G0 F4500 X83.838 Y32.503
G1 F1800 X84.185 Y31.81 E19.30564
G1 X84.602 Y31.156 E19.37893
G1 X85.084 Y30.548 E19.45225
G1 X85.514 Y30.096 E19.51121
G1 X86.09 Y29.577 E19.58448
G1 X86.716 Y29.119 E19.65778
G1 X87.387 Y28.729 E19.73112
G1 X88.093 Y28.409 E19.80437
G1 X88.829 Y28.164 E19.87767
G1 X89.587 Y27.996 E19.95104
G1 X90.357 Y27.907 E20.02429
G1 X111.579 Y27.892 E22.02977
G1 X112.354 Y27.932 E22.10311
G1 X113.12 Y28.051 E22.17636
G1 X113.87 Y28.249 E22.24966
G1 X114.596 Y28.523 E22.323
G1 X115.289 Y28.87 E22.39623
G1 X115.943 Y29.287 E22.46953
G1 X116.551 Y29.769 E22.54285
G1 X117.003 Y30.199 E22.60181
G1 X117.522 Y30.775 E22.67508
G1 X117.98 Y31.401 E22.74838
G1 X118.37 Y32.072 E22.82172
G1 X118.69 Y32.778 E22.89497
G1 X118.935 Y33.514 E22.96827
G1 X119.103 Y34.272 E23.04164
G1 X119.192 Y35.042 E23.11489
G1 X119.207 Y53.892 E24.89622
G1 X124.443 Y53.892 E25.39102
G1 X125.218 Y53.932 E25.46435
G1 X125.984 Y54.051 E25.53761
G1 X126.734 Y54.249 E25.61091
G1 X127.46 Y54.523 E25.68424
G1 X128.153 Y54.87 E25.75748
G1 X128.807 Y55.287 E25.83078
G1 X129.415 Y55.769 E25.9041
G1 X129.867 Y56.199 E25.96305
G1 X130.386 Y56.775 E26.03632
G1 X130.844 Y57.401 E26.10962
G1 X131.234 Y58.072 E26.18297
G1 X131.554 Y58.778 E26.25622
G1 X131.799 Y59.514 E26.32952
G1 X131.967 Y60.272 E26.40289
G1 X132.056 Y61.042 E26.47614
G1 X132.072 Y80.264 E28.29262
G1 X132.032 Y81.038 E28.36586
G1 X131.913 Y81.805 E28.43921
G1 X131.715 Y82.555 E28.51251
G1 X131.441 Y83.28 E28.58575
G1 X131.094 Y83.974 E28.65908
G1 X130.677 Y84.628 E28.73237
G1 X130.195 Y85.236 E28.80569
G1 X129.765 Y85.688 E28.86465
G1 X129.189 Y86.207 E28.93792
G1 X128.563 Y86.665 E29.01122
G1 X127.892 Y87.055 E29.08456
G1 X127.186 Y87.375 E29.15781
G1 X126.45 Y87.62 E29.23111
G1 X125.692 Y87.788 E29.30448
G1 X124.922 Y87.877 E29.37773
G1 X114.835 Y87.892 E30.33096
G1 X114.06 Y87.852 E30.40429
G1 X113.294 Y87.733 E30.47755
G1 X112.544 Y87.535 E30.55085
G1 X112.214 Y87.411 E30.58416
G1 X111.585 Y87.62 E30.6468
G1 X110.827 Y87.788 E30.72017
G1 X110.057 Y87.877 E30.79342
G1 X90.835 Y87.892 E32.6099
G1 X90.06 Y87.852 E32.68323
G1 X89.294 Y87.733 E32.75649
G1 X88.544 Y87.535 E32.82979
G1 X87.818 Y87.261 E32.90312
G1 X87.125 Y86.914 E32.97636
G1 X86.471 Y86.497 E33.04966
G1 X85.863 Y86.015 E33.12298
G1 X85.411 Y85.585 E33.18193
G1 X84.892 Y85.009 E33.2552
G1 X84.434 Y84.383 E33.3285
G1 X84.044 Y83.712 E33.40184
G1 X83.724 Y83.006 E33.47509
G1 X83.479 Y82.27 E33.5484
G1 X83.311 Y81.512 E33.62177
G1 X83.222 Y80.742 E33.69502
G1 X83.207 Y61.52 E35.5115
G1 X83.247 Y60.745 E35.58483
G1 X83.366 Y59.979 E35.65809
G1 X83.564 Y59.229 E35.73139
G1 X83.688 Y58.899 E35.7647
G1 X83.479 Y58.27 E35.82734
G1 X83.311 Y57.512 E35.90071
G1 X83.222 Y56.742 E35.97396
G1 X83.207 Y35.52 E37.97944
G1 X83.247 Y34.745 E38.05277
G1 X83.366 Y33.979 E38.12603
G1 X83.564 Y33.229 E38.19933
G1 X83.838 Y32.503 E38.27266
G0 F4500 X84.188 Y32.578
G1 F1800 X84.534 Y31.905 E38.34417
G1 X84.95 Y31.272 E38.41575
G1 X85.659 Y30.447 E38.51855
G1 X86.325 Y29.837 E38.6039
G1 X86.938 Y29.393 E38.67542
G1 X87.595 Y29.015 E38.74705
G1 X88.287 Y28.709 E38.81856
G1 X89.009 Y28.478 E38.89019
G1 X89.75 Y28.324 E38.96171
G1 X90.835 Y28.242 E39.06454
G1 X111.579 Y28.242 E41.02485
G1 X112.335 Y28.282 E41.09639
G1 X113.083 Y28.401 E41.16796
G1 X113.814 Y28.599 E41.23953
G1 X114.521 Y28.873 E41.31118
G1 X115.194 Y29.219 E41.3827
G1 X115.827 Y29.635 E41.45428
G1 X116.652 Y30.344 E41.55707
G1 X117.262 Y31.01 E41.64242
G1 X117.706 Y31.623 E41.71395
G1 X118.084 Y32.28 E41.78558
G1 X118.39 Y32.972 E41.85708
G1 X118.621 Y33.694 E41.92871
G1 X118.775 Y34.435 E42.00023
G1 X118.857 Y35.52 E42.10306
G1 X118.857 Y54.242 E43.87229
G1 X124.443 Y54.242 E44.40017
G1 X125.199 Y54.282 E44.47171
G1 X125.947 Y54.401 E44.54328
G1 X126.678 Y54.599 E44.61485
G1 X127.385 Y54.873 E44.6865
G1 X128.058 Y55.219 E44.75802
G1 X128.691 Y55.635 E44.8296
G1 X129.516 Y56.344 E44.93239
G1 X130.126 Y57.01 E45.01774
G1 X130.57 Y57.623 E45.08927
G1 X130.948 Y58.28 E45.1609
G1 X131.254 Y58.972 E45.2324
G1 X131.485 Y59.694 E45.30403
G1 X131.639 Y60.435 E45.37555
G1 X131.721 Y61.52 E45.47838
G1 X131.722 Y80.264 E47.24969
G1 X131.682 Y81.02 E47.32123
G1 X131.563 Y81.768 E47.3928
G1 X131.365 Y82.499 E47.46437
G1 X131.091 Y83.205 E47.53594
G1 X130.745 Y83.879 E47.60753
G1 X130.329 Y84.512 E47.67911
G1 X129.62 Y85.337 E47.78191
G1 X128.954 Y85.947 E47.86726
G1 X128.341 Y86.391 E47.93878
G1 X127.684 Y86.769 E48.01041
G1 X126.992 Y87.075 E48.08192
G1 X126.27 Y87.306 E48.15355
G1 X125.529 Y87.46 E48.22507
G1 X124.444 Y87.542 E48.3279
G1 X114.835 Y87.542 E49.23595
G1 X114.079 Y87.502 E49.30749
G1 X113.331 Y87.383 E49.37907
G1 X112.6 Y87.185 E49.45063
G1 X112.215 Y87.036 E49.48965
G1 X111.405 Y87.306 E49.57033
G1 X110.664 Y87.46 E49.64185
G1 X109.579 Y87.542 E49.74468
G1 X90.835 Y87.542 E51.51599
G1 X90.079 Y87.502 E51.58753
G1 X89.331 Y87.383 E51.6591
G1 X88.6 Y87.185 E51.73067
G1 X87.893 Y86.911 E51.80232
G1 X87.22 Y86.565 E51.87384
G1 X86.587 Y86.149 E51.94542
G1 X85.762 Y85.44 E52.04821
G1 X85.152 Y84.774 E52.13356
G1 X84.708 Y84.161 E52.20509
G1 X84.33 Y83.504 E52.27672
G1 X84.024 Y82.812 E52.34822
G1 X83.793 Y82.09 E52.41985
G1 X83.639 Y81.349 E52.49137
G1 X83.557 Y80.264 E52.5942
G1 X83.557 Y61.52 E54.36551
G1 X83.597 Y60.764 E54.43705
G1 X83.716 Y60.016 E54.50862
G1 X83.914 Y59.285 E54.58019
G1 X84.063 Y58.9 E54.61921
G1 X83.793 Y58.09 E54.69989
G1 X83.639 Y57.349 E54.77141
G1 X83.557 Y56.264 E54.87424
G1 X83.557 Y35.52 E56.83454
G1 X83.597 Y34.764 E56.90609
G1 X83.716 Y34.016 E56.97766
G1 X83.914 Y33.285 E57.04923
G1 X84.188 Y32.578 E57.12088
G0 F4500 X84.537 Y32.656
G1 F1800 X84.883 Y32.003 E57.19072
G1 X85.297 Y31.391 E57.26054
G1 X85.906 Y30.694 E57.34801
G1 X86.559 Y30.098 E57.43156
G1 X87.159 Y29.667 E57.50137
G1 X87.802 Y29.303 E57.57119
G1 X88.48 Y29.011 E57.64095
G1 X89.186 Y28.794 E57.71075
G1 X89.912 Y28.655 E57.7806
G1 X90.835 Y28.592 E57.86803
G1 X111.579 Y28.592 E59.82834
G1 X112.317 Y28.632 E59.89818
G1 X113.045 Y28.751 E59.96789
G1 X113.757 Y28.949 E60.03773
G1 X114.443 Y29.222 E60.1075
G1 X115.096 Y29.568 E60.17734
G1 X115.708 Y29.982 E60.24716
G1 X116.405 Y30.591 E60.33463
G1 X117.001 Y31.244 E60.41817
G1 X117.432 Y31.844 E60.48799
G1 X117.796 Y32.487 E60.55781
G1 X118.088 Y33.165 E60.62757
G1 X118.305 Y33.871 E60.69737
G1 X118.444 Y34.597 E60.76722
G1 X118.507 Y35.52 E60.85465
G1 X118.507 Y54.592 E62.65695
G1 X124.443 Y54.592 E63.2179
G1 X125.181 Y54.632 E63.28775
G1 X125.909 Y54.751 E63.35746
G1 X126.621 Y54.949 E63.42729
G1 X127.307 Y55.222 E63.49707
G1 X127.96 Y55.568 E63.5669
G1 X128.572 Y55.982 E63.63673
G1 X129.269 Y56.591 E63.72419
G1 X129.865 Y57.244 E63.80774
G1 X130.296 Y57.844 E63.87755
G1 X130.66 Y58.487 E63.94738
G1 X130.952 Y59.165 E64.01714
G1 X131.169 Y59.871 E64.08693
G1 X131.308 Y60.597 E64.15679
G1 X131.371 Y61.52 E64.24421
G1 X131.372 Y80.264 E66.01552
G1 X131.332 Y81.001 E66.08527
G1 X131.213 Y81.73 E66.15507
G1 X131.015 Y82.442 E66.22491
G1 X130.742 Y83.128 E66.29468
G1 X130.396 Y83.781 E66.36452
G1 X129.982 Y84.392 E66.43426
G1 X129.373 Y85.09 E66.5218
G1 X128.72 Y85.686 E66.60535
G1 X128.12 Y86.117 E66.67516
G1 X127.477 Y86.481 E66.74498
G1 X126.799 Y86.773 E66.81475
G1 X126.093 Y86.99 E66.88454
G1 X125.367 Y87.129 E66.9544
G1 X124.444 Y87.192 E67.04182
G1 X114.835 Y87.192 E67.94987
G1 X114.097 Y87.152 E68.01972
G1 X113.369 Y87.033 E68.08943
G1 X112.657 Y86.835 E68.15926
G1 X112.206 Y86.656 E68.20512
G1 X111.228 Y86.99 E68.30278
G1 X110.502 Y87.129 E68.37263
G1 X109.579 Y87.192 E68.46006
G1 X90.835 Y87.192 E70.23137
G1 X90.097 Y87.152 E70.30121
G1 X89.369 Y87.033 E70.37092
G1 X88.657 Y86.835 E70.44076
G1 X87.971 Y86.562 E70.51053
G1 X87.318 Y86.216 E70.58036
G1 X86.706 Y85.802 E70.65019
G1 X86.009 Y85.193 E70.73765
G1 X85.413 Y84.54 E70.8212
G1 X84.982 Y83.94 E70.89101
G1 X84.618 Y83.297 E70.96084
G1 X84.326 Y82.619 E71.0306
G1 X84.109 Y81.913 E71.1004
G1 X83.97 Y81.187 E71.17025
G1 X83.907 Y80.264 E71.25767
G1 X83.907 Y61.52 E73.02898
G1 X83.947 Y60.782 E73.09883
G1 X84.066 Y60.054 E73.16854
G1 X84.264 Y59.342 E73.23837
G1 X84.443 Y58.891 E73.28423
G1 X84.109 Y57.913 E73.38189
G1 X83.97 Y57.187 E73.45174
G1 X83.907 Y56.264 E73.53917
G1 X83.907 Y35.52 E75.49948
G1 X83.947 Y34.782 E75.56932
G1 X84.066 Y34.054 E75.63903
G1 X84.264 Y33.342 E75.70887
G1 X84.537 Y32.656 E75.77864
G0 F4500 X84.887 Y32.735
G1 F1800 X85.232 Y32.103 E75.84668
G1 X85.645 Y31.514 E75.91466
G1 X86.153 Y30.941 E75.98703
G1 X86.793 Y30.359 E76.06877
G1 X87.379 Y29.942 E76.13674
G1 X88.008 Y29.592 E76.20476
G1 X88.671 Y29.314 E76.2727
G1 X89.362 Y29.112 E76.34073
G1 X90.07 Y28.987 E76.40867
G1 X90.835 Y28.942 E76.48109
G1 X111.579 Y28.942 E78.4414
G1 X112.297 Y28.982 E78.50936
G1 X113.007 Y29.101 E78.57739
G1 X113.699 Y29.299 E78.64541
G1 X114.364 Y29.572 E78.71334
G1 X114.996 Y29.917 E78.78138
G1 X115.585 Y30.33 E78.84936
G1 X116.158 Y30.838 E78.92173
G1 X116.74 Y31.478 E79.00347
G1 X117.157 Y32.064 E79.07144
G1 X117.507 Y32.693 E79.13946
G1 X117.785 Y33.356 E79.2074
G1 X117.987 Y34.047 E79.27543
G1 X118.112 Y34.755 E79.34337
G1 X118.157 Y35.52 E79.41579
G1 X118.157 Y54.942 E81.25117
G1 X124.443 Y54.942 E81.8452
G1 X125.161 Y54.982 E81.91315
G1 X125.871 Y55.101 E81.98119
G1 X126.563 Y55.299 E82.0492
G1 X127.228 Y55.572 E82.11714
G1 X127.86 Y55.917 E82.18518
G1 X128.449 Y56.33 E82.25316
G1 X129.022 Y56.838 E82.32552
G1 X129.604 Y57.478 E82.40727
G1 X130.021 Y58.064 E82.47524
G1 X130.371 Y58.693 E82.54326
G1 X130.649 Y59.356 E82.6112
G1 X130.851 Y60.047 E82.67923
G1 X130.976 Y60.755 E82.74717
G1 X131.021 Y61.52 E82.81959
G1 X131.022 Y80.264 E84.5909
G1 X130.982 Y80.982 E84.65885
G1 X130.863 Y81.691 E84.72679
G1 X130.665 Y82.383 E84.79481
G1 X130.392 Y83.049 E84.86283
G1 X130.047 Y83.68 E84.93079
G1 X129.634 Y84.269 E84.99877
G1 X129.126 Y84.843 E85.07121
G1 X128.486 Y85.425 E85.15295
G1 X127.9 Y85.842 E85.22092
G1 X127.271 Y86.192 E85.28894
G1 X126.608 Y86.47 E85.35688
G1 X125.917 Y86.672 E85.42491
G1 X125.209 Y86.797 E85.49285
G1 X124.444 Y86.842 E85.56527
G1 X114.835 Y86.842 E86.47332
G1 X114.117 Y86.802 E86.54128
G1 X113.407 Y86.683 E86.60931
G1 X112.715 Y86.485 E86.67733
G1 X112.206 Y86.276 E86.72933
G1 X111.743 Y86.47 E86.77676
G1 X111.052 Y86.672 E86.8448
G1 X110.344 Y86.797 E86.91274
G1 X109.579 Y86.842 E86.98516
G1 X90.835 Y86.842 E88.75646
G1 X90.117 Y86.802 E88.82442
G1 X89.407 Y86.683 E88.89245
G1 X88.715 Y86.485 E88.96047
G1 X88.05 Y86.212 E89.0284
G1 X87.418 Y85.867 E89.09644
G1 X86.829 Y85.454 E89.16442
G1 X86.256 Y84.946 E89.23679
G1 X85.674 Y84.306 E89.31854
G1 X85.257 Y83.72 E89.3865
G1 X84.907 Y83.091 E89.45453
G1 X84.629 Y82.428 E89.52246
G1 X84.427 Y81.737 E89.5905
G1 X84.302 Y81.029 E89.65844
G1 X84.257 Y80.264 E89.73086
G1 X84.257 Y61.52 E91.50216
G1 X84.297 Y60.802 E91.57012
G1 X84.416 Y60.092 E91.63815
G1 X84.614 Y59.4 E91.70617
G1 X84.823 Y58.891 E91.75817
G1 X84.629 Y58.428 E91.80561
G1 X84.427 Y57.737 E91.87364
G1 X84.302 Y57.029 E91.94158
G1 X84.257 Y56.264 E92.014
G1 X84.257 Y35.52 E93.9743
G1 X84.297 Y34.802 E94.04226
G1 X84.416 Y34.092 E94.11029
G1 X84.614 Y33.4 E94.17831
G1 X84.887 Y32.735 E94.24624
G0 F4500 X85.236 Y32.816
G1 F1800 X85.58 Y32.207 E94.31234
G1 X85.992 Y31.641 E94.3785
G1 X86.401 Y31.189 E94.4361
G1 X87.026 Y30.62 E94.51597
G1 X87.598 Y30.217 E94.5821
G1 X88.212 Y29.882 E94.64819
G1 X88.861 Y29.619 E94.71437
G1 X89.535 Y29.432 E94.78047
G1 X90.226 Y29.322 E94.84659
G1 X90.835 Y29.292 E94.90421
G1 X111.579 Y29.292 E96.86452
G1 X112.278 Y29.332 E96.93068
G1 X112.967 Y29.451 E96.99675
G1 X113.638 Y29.649 E97.06287
G1 X114.283 Y29.921 E97.12902
G1 X114.892 Y30.265 E97.19512
G1 X115.458 Y30.677 E97.26127
G1 X115.91 Y31.086 E97.31888
G1 X116.479 Y31.711 E97.39875
G1 X116.882 Y32.283 E97.46487
G1 X117.217 Y32.897 E97.53097
G1 X117.48 Y33.546 E97.59714
G1 X117.667 Y34.22 E97.66324
G1 X117.777 Y34.911 E97.72937
G1 X117.807 Y35.52 E97.78699
G1 X117.807 Y55.292 E99.65544
G1 X124.443 Y55.292 E100.28254
G1 X125.142 Y55.332 E100.34871
G1 X125.831 Y55.451 E100.41478
G1 X126.502 Y55.649 E100.48089
G1 X127.147 Y55.921 E100.54704
G1 X127.756 Y56.265 E100.61314
G1 X128.322 Y56.677 E100.6793
G1 X128.774 Y57.086 E100.7369
G1 X129.343 Y57.711 E100.81677
G1 X129.746 Y58.283 E100.8829
G1 X130.081 Y58.897 E100.94899
G1 X130.344 Y59.546 E101.01517
G1 X130.531 Y60.22 E101.08127
G1 X130.641 Y60.911 E101.14739
G1 X130.671 Y61.52 E101.20501
G1 X130.672 Y80.264 E102.97632
G1 X130.632 Y80.962 E103.04239
G1 X130.513 Y81.652 E103.10856
G1 X130.316 Y82.323 E103.17464
G1 X130.043 Y82.968 E103.24083
G1 X129.699 Y83.577 E103.30693
G1 X129.287 Y84.143 E103.37308
G1 X128.878 Y84.595 E103.43069
G1 X128.253 Y85.164 E103.51056
