;FLAVOR:UltiGCode
;TIME:972
;MATERIAL:1803
;MATERIAL2:0
;NOZZLE_DIAMETER:0.4
;MINX:93.125
;MINY:81.82
;MINZ:0.27
;MAXX:129.875
;MAXY:130.235
;MAXZ:5.97
;Generated with Cura_SteamEngine 4.6.2
M82 ;absolute extrusion mode
G0 F3000 Y50 ;avoid prime blob
G92 E0
G92 E0
G10
;LAYER_COUNT:39
;LAYER:0
M107
G0 F4500 X95.055 Y84.691 Z0.27
;TYPE:SKIRT
G11
G1 F1800 X95.482 Y84.23 E0.05938
G1 X96.173 Y83.594 E0.14813
G1 X96.812 Y83.124 E0.22309
G1 X97.496 Y82.721 E0.29811
G1 X98.216 Y82.388 E0.37308
G1 X98.966 Y82.13 E0.44803
G1 X99.739 Y81.948 E0.52307
G1 X100.525 Y81.845 E0.59799
G1 X101.153 Y81.82 E0.65738
G1 X121.897 Y81.82 E2.61769
G1 X122.689 Y81.86 E2.69263
G1 X123.474 Y81.979 E2.76766
G1 X124.242 Y82.177 E2.84261
G1 X124.987 Y82.452 E2.91765
G1 X125.7 Y82.799 E2.99259
G1 X126.375 Y83.217 E3.06761
G1 X127.004 Y83.7 E3.14256
G1 X127.465 Y84.127 E3.20194
G1 X128.101 Y84.818 E3.29069
G1 X128.571 Y85.457 E3.36565
G1 X128.974 Y86.141 E3.44067
G1 X129.307 Y86.861 E3.51564
G1 X129.565 Y87.611 E3.59059
G1 X129.747 Y88.384 E3.66563
G1 X129.85 Y89.17 E3.74054
G1 X129.875 Y89.798 E3.79994
G1 X129.875 Y110.542 E5.76025
G1 X129.835 Y111.334 E5.83518
G1 X129.716 Y112.119 E5.91021
G1 X129.577 Y112.66 E5.963
G1 X129.747 Y113.384 E6.03328
G1 X129.85 Y114.17 E6.10819
G1 X129.875 Y114.798 E6.16758
G1 X129.875 Y120.542 E6.71039
G1 X129.835 Y121.334 E6.78533
G1 X129.716 Y122.119 E6.86036
G1 X129.518 Y122.887 E6.93531
G1 X129.243 Y123.632 E7.01036
G1 X128.896 Y124.345 E7.08529
G1 X128.478 Y125.02 E7.16032
G1 X127.995 Y125.649 E7.23526
G1 X127.568 Y126.11 E7.29464
G1 X126.877 Y126.746 E7.38339
G1 X126.238 Y127.216 E7.45835
G1 X125.774 Y127.489 E7.50923
G1 X124.908 Y128.321 E7.62271
G1 X124.271 Y128.794 E7.69769
G1 X123.589 Y129.201 E7.77274
G1 X122.871 Y129.537 E7.84765
G1 X122.122 Y129.8 E7.92267
G1 X121.35 Y129.985 E7.99769
G1 X120.849 Y130.099 E8.04625
G1 X120.063 Y130.206 E8.12121
G1 X119.398 Y130.234 E8.18411
G1 X103.654 Y130.235 E9.67191
G1 X102.861 Y130.195 E9.74695
G1 X102.077 Y130.076 E9.82189
G1 X101.576 Y129.961 E9.87046
G1 X100.808 Y129.763 E9.94541
G1 X100.063 Y129.488 E10.02046
G1 X99.35 Y129.141 E10.09539
G1 X98.675 Y128.723 E10.17042
G1 X98.046 Y128.24 E10.24536
G1 X97.585 Y127.813 E10.30474
G1 X97.3 Y127.541 E10.34197
G1 X96.625 Y127.123 E10.417
G1 X95.996 Y126.64 E10.49194
G1 X95.535 Y126.213 E10.55132
G1 X94.899 Y125.522 E10.64007
G1 X94.429 Y124.883 E10.71503
G1 X94.026 Y124.199 E10.79006
G1 X93.693 Y123.479 E10.86502
G1 X93.435 Y122.729 E10.93997
G1 X93.253 Y121.956 E11.01502
G1 X93.15 Y121.17 E11.08993
G1 X93.125 Y120.542 E11.14932
G1 X93.125 Y114.798 E11.69213
G1 X93.165 Y114.006 E11.76707
G1 X93.284 Y113.221 E11.8421
G1 X93.45 Y112.579 E11.90476
G1 X93.303 Y111.956 E11.96525
G1 X93.2 Y111.17 E12.04017
G1 X93.175 Y110.542 E12.09956
G1 X93.175 Y89.798 E14.05987
G1 X93.215 Y89.006 E14.13481
G1 X93.334 Y88.221 E14.20984
G1 X93.532 Y87.453 E14.28479
G1 X93.807 Y86.708 E14.35983
G1 X94.154 Y85.995 E14.43477
G1 X94.572 Y85.32 E14.50979
G1 X95.055 Y84.691 E14.58474
G0 F4500 X95.402 Y84.826
G1 F1800 X95.832 Y84.374 E14.64369
G1 X96.408 Y83.855 E14.71696
G1 X97.034 Y83.397 E14.79026
G1 X97.705 Y83.007 E14.8636
G1 X98.411 Y82.687 E14.93685
G1 X99.147 Y82.442 E15.01016
G1 X99.905 Y82.274 E15.08353
G1 X100.675 Y82.185 E15.15678
G1 X121.897 Y82.17 E17.16226
G1 X122.672 Y82.21 E17.23559
G1 X123.438 Y82.329 E17.30885
G1 X124.188 Y82.527 E17.38215
G1 X124.914 Y82.801 E17.45548
G1 X125.607 Y83.148 E17.52872
G1 X126.261 Y83.565 E17.60202
G1 X126.869 Y84.047 E17.67534
G1 X127.321 Y84.477 E17.73429
G1 X127.84 Y85.053 E17.80756
G1 X128.298 Y85.679 E17.88086
G1 X128.688 Y86.35 E17.9542
G1 X129.008 Y87.056 E18.02745
G1 X129.253 Y87.792 E18.10076
G1 X129.421 Y88.55 E18.17413
G1 X129.51 Y89.32 E18.24738
G1 X129.525 Y110.542 E20.25285
G1 X129.485 Y111.317 E20.32619
G1 X129.366 Y112.083 E20.39945
G1 X129.212 Y112.668 E20.45661
G1 X129.421 Y113.55 E20.54227
G1 X129.51 Y114.32 E20.61552
G1 X129.525 Y120.542 E21.2035
G1 X129.485 Y121.317 E21.27683
G1 X129.366 Y122.083 E21.35009
G1 X129.168 Y122.833 E21.42339
G1 X128.894 Y123.559 E21.49672
G1 X128.547 Y124.252 E21.56996
G1 X128.13 Y124.906 E21.64326
G1 X127.648 Y125.514 E21.71658
G1 X127.218 Y125.966 E21.77553
G1 X126.642 Y126.485 E21.8488
G1 X126.016 Y126.943 E21.9221
G1 X125.561 Y127.208 E21.97186
G1 X124.671 Y128.062 E22.08842
G1 X124.047 Y128.523 E22.16174
G1 X123.379 Y128.916 E22.23498
G1 X122.674 Y129.239 E22.30826
G1 X121.939 Y129.488 E22.3816
G1 X120.682 Y129.774 E22.50342
G1 X119.912 Y129.866 E22.5767
G1 X119.397 Y129.884 E22.6254
G1 X103.653 Y129.885 E24.11321
G1 X102.879 Y129.845 E24.18645
G1 X102.113 Y129.726 E24.2597
G1 X101.612 Y129.611 E24.30828
G1 X100.862 Y129.413 E24.38158
G1 X100.136 Y129.139 E24.45491
G1 X99.443 Y128.792 E24.52815
G1 X98.789 Y128.375 E24.60145
G1 X98.181 Y127.893 E24.67477
G1 X97.729 Y127.463 E24.73372
G1 X97.56 Y127.276 E24.75754
G1 X96.739 Y126.775 E24.84843
G1 X96.131 Y126.293 E24.92175
G1 X95.679 Y125.863 E24.98071
G1 X95.16 Y125.287 E25.05398
G1 X94.702 Y124.661 E25.12727
G1 X94.312 Y123.99 E25.20062
G1 X93.992 Y123.284 E25.27387
G1 X93.747 Y122.548 E25.34717
G1 X93.579 Y121.79 E25.42054
G1 X93.49 Y121.02 E25.49379
G1 X93.475 Y114.798 E26.08177
G1 X93.515 Y114.023 E26.15511
G1 X93.634 Y113.257 E26.22836
G1 X93.81 Y112.589 E26.29364
G1 X93.629 Y111.79 E26.37106
G1 X93.54 Y111.02 E26.44431
G1 X93.525 Y89.798 E28.44979
G1 X93.565 Y89.023 E28.52312
G1 X93.684 Y88.257 E28.59638
G1 X93.882 Y87.507 E28.66968
G1 X94.156 Y86.781 E28.74301
G1 X94.503 Y86.088 E28.81625
G1 X94.92 Y85.434 E28.88955
G1 X95.402 Y84.826 E28.96287
G0 F4500 X95.268 Y85.55
G1 F1800 X95.977 Y84.725 E29.06567
G1 X96.643 Y84.115 E29.15101
G1 X97.256 Y83.671 E29.22254
G1 X97.913 Y83.293 E29.29417
G1 X98.605 Y82.987 E29.36567
G1 X99.327 Y82.756 E29.43731
G1 X100.068 Y82.602 E29.50883
G1 X101.153 Y82.52 E29.61165
G1 X121.897 Y82.52 E31.57196
G1 X122.653 Y82.56 E31.6435
G1 X123.401 Y82.679 E31.71508
G1 X124.132 Y82.877 E31.78665
G1 X124.839 Y83.151 E31.8583
G1 X125.512 Y83.497 E31.92981
G1 X126.145 Y83.913 E32.00139
G1 X126.97 Y84.622 E32.10419
G1 X127.58 Y85.288 E32.18954
G1 X128.024 Y85.901 E32.26106
G1 X128.402 Y86.558 E32.33269
G1 X128.708 Y87.25 E32.40419
G1 X128.939 Y87.972 E32.47583
G1 X129.093 Y88.713 E32.54735
G1 X129.175 Y89.798 E32.65018
G1 X129.175 Y110.542 E34.61048
G1 X129.135 Y111.298 E34.68203
G1 X129.016 Y112.046 E34.7536
G1 X128.845 Y112.678 E34.81547
G1 X129.093 Y113.713 E34.91605
G1 X129.175 Y114.798 E35.01887
G1 X129.175 Y120.542 E35.56168
G1 X129.135 Y121.298 E35.63322
G1 X129.016 Y122.046 E35.7048
G1 X128.818 Y122.777 E35.77637
G1 X128.544 Y123.484 E35.84802
G1 X128.198 Y124.157 E35.91953
G1 X127.782 Y124.79 E35.99111
G1 X127.073 Y125.615 E36.09391
G1 X126.407 Y126.225 E36.17926
G1 X125.794 Y126.669 E36.25078
G1 X125.302 Y126.952 E36.30442
G1 X124.996 Y127.294 E36.34779
G1 X124.436 Y127.803 E36.4193
G1 X123.824 Y128.25 E36.49092
G1 X123.17 Y128.631 E36.56244
G1 X122.478 Y128.94 E36.63406
G1 X121.758 Y129.175 E36.70563
G1 X121.257 Y129.289 E36.75419
G1 X120.516 Y129.446 E36.82577
G1 X119.397 Y129.534 E36.93184
G1 X103.653 Y129.535 E38.41965
G1 X102.897 Y129.495 E38.49119
G1 X102.149 Y129.376 E38.56276
G1 X101.649 Y129.261 E38.61125
G1 X100.918 Y129.063 E38.68282
G1 X100.211 Y128.789 E38.75447
G1 X99.538 Y128.443 E38.82598
G1 X98.905 Y128.027 E38.89756
G1 X98.08 Y127.318 E39.00036
G1 X97.775 Y126.99 E39.04268
G1 X96.855 Y126.427 E39.14461
G1 X96.03 Y125.718 E39.24741
G1 X95.42 Y125.052 E39.33276
G1 X94.976 Y124.439 E39.40428
G1 X94.598 Y123.782 E39.47591
G1 X94.292 Y123.09 E39.54741
G1 X94.061 Y122.368 E39.61905
G1 X93.907 Y121.627 E39.69057
G1 X93.825 Y120.542 E39.7934
G1 X93.825 Y114.798 E40.3362
G1 X93.865 Y114.042 E40.40775
G1 X93.984 Y113.294 E40.47932
G1 X94.178 Y112.578 E40.54942
G1 X93.957 Y111.627 E40.64169
G1 X93.875 Y110.542 E40.74451
G1 X93.875 Y89.798 E42.70482
G1 X93.915 Y89.042 E42.77636
G1 X94.034 Y88.294 E42.84794
G1 X94.232 Y87.563 E42.91951
G1 X94.506 Y86.856 E42.99116
G1 X94.852 Y86.183 E43.06267
G1 X95.268 Y85.55 E43.13425
G0 F4500 X95.615 Y85.669
G1 F1800 X96.224 Y84.972 E43.22172
G1 X96.877 Y84.376 E43.30526
G1 X97.477 Y83.945 E43.37508
G1 X98.12 Y83.581 E43.4449
G1 X98.798 Y83.289 E43.51466
G1 X99.504 Y83.072 E43.58446
G1 X100.23 Y82.933 E43.65431
G1 X101.153 Y82.87 E43.74174
G1 X121.897 Y82.87 E45.70205
G1 X122.635 Y82.91 E45.77189
G1 X123.363 Y83.029 E45.8416
G1 X124.075 Y83.227 E45.91144
G1 X124.761 Y83.5 E45.98121
G1 X125.414 Y83.846 E46.05104
G1 X126.026 Y84.26 E46.12087
G1 X126.723 Y84.869 E46.20833
G1 X127.319 Y85.522 E46.29188
G1 X127.75 Y86.122 E46.36169
G1 X128.114 Y86.765 E46.43152
G1 X128.406 Y87.443 E46.50128
G1 X128.623 Y88.149 E46.57108
G1 X128.762 Y88.875 E46.64093
G1 X128.825 Y89.798 E46.72836
G1 X128.825 Y110.542 E48.68866
G1 X128.785 Y111.28 E48.75851
G1 X128.666 Y112.008 E48.82822
G1 X128.479 Y112.68 E48.89413
G1 X128.623 Y113.149 E48.9405
G1 X128.762 Y113.875 E49.01035
G1 X128.825 Y114.798 E49.09777
G1 X128.825 Y120.542 E49.64058
G1 X128.785 Y121.28 E49.71043
G1 X128.666 Y122.008 E49.78014
G1 X128.468 Y122.72 E49.84997
G1 X128.195 Y123.406 E49.91974
G1 X127.849 Y124.059 E49.98958
G1 X127.435 Y124.671 E50.0594
G1 X126.826 Y125.368 E50.14687
G1 X126.173 Y125.964 E50.23042
G1 X125.573 Y126.395 E50.30023
G1 X125.088 Y126.67 E50.35292
G1 X124.747 Y127.047 E50.40096
G1 X124.2 Y127.543 E50.47073
G1 X123.602 Y127.977 E50.54056
G1 X122.961 Y128.344 E50.61036
G1 X122.284 Y128.639 E50.68015
G1 X121.579 Y128.86 E50.74997
G1 X121.078 Y128.974 E50.79852
G1 X120.353 Y129.117 E50.86835
G1 X119.397 Y129.184 E50.95892
G1 X103.653 Y129.185 E52.44672
G1 X102.916 Y129.145 E52.51647
G1 X102.187 Y129.026 E52.58628
G1 X101.687 Y128.911 E52.63476
G1 X100.975 Y128.713 E52.7046
G1 X100.289 Y128.44 E52.77437
G1 X99.636 Y128.094 E52.8442
G1 X99.024 Y127.68 E52.91403
G1 X98.327 Y127.071 E53.00149
G1 X97.992 Y126.709 E53.0481
G1 X97.586 Y126.494 E53.09152
G1 X96.974 Y126.08 E53.16134
G1 X96.277 Y125.471 E53.24881
G1 X95.681 Y124.818 E53.33236
G1 X95.25 Y124.218 E53.40217
G1 X94.886 Y123.575 E53.47199
G1 X94.594 Y122.897 E53.54175
G1 X94.377 Y122.191 E53.61155
G1 X94.238 Y121.465 E53.6814
G1 X94.175 Y120.542 E53.76883
G1 X94.175 Y114.798 E54.31164
G1 X94.215 Y114.06 E54.38148
G1 X94.334 Y113.332 E54.45119
G1 X94.532 Y112.62 E54.52103
G1 X94.288 Y111.465 E54.63258
G1 X94.225 Y110.542 E54.72001
G1 X94.225 Y89.798 E56.68032
G1 X94.265 Y89.06 E56.75016
G1 X94.384 Y88.332 E56.81987
G1 X94.582 Y87.62 E56.88971
G1 X94.855 Y86.934 E56.95948
G1 X95.201 Y86.281 E57.02932
G1 X95.615 Y85.669 E57.09914
G0 F4500 X95.963 Y85.792
G1 F1800 X96.471 Y85.219 E57.1715
G1 X97.111 Y84.637 E57.25325
G1 X97.697 Y84.22 E57.32122
G1 X98.326 Y83.87 E57.38924
G1 X98.989 Y83.592 E57.45718
G1 X99.68 Y83.39 E57.52521
G1 X100.388 Y83.265 E57.59315
G1 X101.153 Y83.22 E57.66557
G1 X121.897 Y83.22 E59.62588
G1 X122.615 Y83.26 E59.69384
G1 X123.325 Y83.379 E59.76187
G1 X124.017 Y83.577 E59.82988
G1 X124.682 Y83.85 E59.89782
G1 X125.314 Y84.195 E59.96586
G1 X125.903 Y84.608 E60.03384
G1 X126.476 Y85.116 E60.1062
G1 X127.058 Y85.756 E60.18795
G1 X127.475 Y86.342 E60.25592
G1 X127.825 Y86.971 E60.32394
G1 X128.103 Y87.634 E60.39188
G1 X128.305 Y88.325 E60.45991
G1 X128.43 Y89.033 E60.52785
G1 X128.475 Y89.798 E60.60027
G1 X128.475 Y110.542 E62.56058
G1 X128.435 Y111.26 E62.62854
G1 X128.316 Y111.97 E62.69657
G1 X128.118 Y112.662 E62.76458
G1 X128.305 Y113.325 E62.82968
G1 X128.43 Y114.033 E62.89762
G1 X128.475 Y114.798 E62.97004
G1 X128.475 Y120.542 E63.51285
G1 X128.435 Y121.26 E63.58081
G1 X128.316 Y121.97 E63.64884
G1 X128.118 Y122.662 E63.71685
G1 X127.845 Y123.327 E63.78479
G1 X127.5 Y123.959 E63.85283
G1 X127.087 Y124.548 E63.92081
G1 X126.579 Y125.121 E63.99317
G1 X125.939 Y125.703 E64.07492
G1 X125.353 Y126.12 E64.14289
G1 X124.878 Y126.384 E64.19424
G1 X124.499 Y126.801 E64.24749
G1 X123.965 Y127.283 E64.31547
G1 X123.381 Y127.703 E64.38345
G1 X122.754 Y128.056 E64.45145
G1 X122.091 Y128.337 E64.5195
G1 X121.402 Y128.543 E64.58746
G1 X120.901 Y128.657 E64.63601
G1 X120.193 Y128.785 E64.704
G1 X119.397 Y128.834 E64.77937
G1 X103.653 Y128.835 E66.26717
G1 X102.935 Y128.795 E66.33513
G1 X102.226 Y128.676 E66.40307
G1 X101.725 Y128.561 E66.45164
G1 X101.033 Y128.363 E66.51966
G1 X100.368 Y128.09 E66.58759
G1 X99.736 Y127.745 E66.65564
G1 X99.147 Y127.332 E66.72362
G1 X98.574 Y126.824 E66.79598
G1 X98.215 Y126.434 E66.84607
G1 X97.686 Y126.145 E66.90304
G1 X97.097 Y125.732 E66.97102
G1 X96.524 Y125.224 E67.04338
G1 X95.942 Y124.584 E67.12513
G1 X95.525 Y123.998 E67.1931
G1 X95.175 Y123.369 E67.26112
G1 X94.897 Y122.706 E67.32906
G1 X94.695 Y122.015 E67.39709
G1 X94.57 Y121.307 E67.46503
G1 X94.525 Y120.542 E67.53745
G1 X94.525 Y114.798 E68.08026
G1 X94.565 Y114.08 E68.14821
G1 X94.684 Y113.37 E68.21624
G1 X94.882 Y112.678 E68.28426
G1 X94.915 Y112.597 E68.29253
G1 X94.745 Y112.015 E68.34982
G1 X94.62 Y111.307 E68.41777
G1 X94.575 Y110.542 E68.49018
G1 X94.575 Y89.798 E70.45049
G1 X94.615 Y89.08 E70.51845
G1 X94.734 Y88.37 E70.58648
G1 X94.932 Y87.678 E70.6545
G1 X95.205 Y87.013 E70.72243
G1 X95.55 Y86.381 E70.79047
G1 X95.963 Y85.792 E70.85845
G0 F4500 X96.31 Y85.919
G1 F1800 X96.719 Y85.467 E70.91606
G1 X97.344 Y84.898 E70.99593
G1 X97.916 Y84.495 E71.06205
G1 X98.53 Y84.16 E71.12815
G1 X99.179 Y83.897 E71.19432
G1 X99.853 Y83.71 E71.26042
G1 X100.544 Y83.6 E71.32655
G1 X101.153 Y83.57 E71.38417
G1 X121.897 Y83.57 E73.34447
G1 X122.596 Y83.61 E73.41064
G1 X123.285 Y83.729 E73.47671
G1 X123.956 Y83.927 E73.54282
G1 X124.601 Y84.199 E73.60897
G1 X125.21 Y84.543 E73.67507
G1 X125.776 Y84.955 E73.74123
G1 X126.228 Y85.364 E73.79883
G1 X126.797 Y85.989 E73.87871
G1 X127.2 Y86.561 E73.94483
G1 X127.535 Y87.175 E74.01093
G1 X127.798 Y87.824 E74.0771
G1 X127.985 Y88.498 E74.1432
G1 X128.095 Y89.189 E74.20932
G1 X128.125 Y89.798 E74.26694
G1 X128.125 Y110.542 E76.22725
G1 X128.085 Y111.241 E76.29341
G1 X127.966 Y111.93 E76.35949
G1 X127.768 Y112.601 E76.4256
G1 X127.737 Y112.674 E76.4331
G1 X127.985 Y113.498 E76.51441
G1 X128.095 Y114.189 E76.58054
G1 X128.125 Y114.798 E76.63816
G1 X128.125 Y120.542 E77.18096
G1 X128.085 Y121.241 E77.24713
G1 X127.966 Y121.93 E77.3132
G1 X127.768 Y122.601 E77.37931
G1 X127.496 Y123.246 E77.44546
G1 X127.152 Y123.855 E77.51156
G1 X126.74 Y124.421 E77.57772
G1 X126.331 Y124.873 E77.63532
G1 X125.706 Y125.442 E77.7152
G1 X125.134 Y125.845 E77.78132
G1 X124.671 Y126.098 E77.83118
G1 X124.25 Y126.555 E77.8899
G1 X123.73 Y127.023 E77.95601
G1 X123.16 Y127.429 E78.02214
G1 X122.548 Y127.767 E78.08821
G1 X121.901 Y128.033 E78.15432
G1 X121.227 Y128.224 E78.22052
G1 X120.726 Y128.338 E78.26907
G1 X120.036 Y128.451 E78.33515
G1 X119.397 Y128.484 E78.39561
G1 X103.653 Y128.485 E79.88342
G1 X102.955 Y128.445 E79.94949
G1 X102.265 Y128.326 E80.01566
G1 X101.765 Y128.211 E80.06414
G1 X101.094 Y128.013 E80.13025
G1 X100.449 Y127.741 E80.1964
G1 X99.84 Y127.397 E80.2625
G1 X99.274 Y126.985 E80.32866
G1 X98.822 Y126.576 E80.38626
G1 X98.437 Y126.157 E80.44003
G1 X97.79 Y125.797 E80.51
G1 X97.224 Y125.385 E80.57616
G1 X96.772 Y124.976 E80.63377
G1 X96.203 Y124.351 E80.71364
G1 X95.8 Y123.779 E80.77976
G1 X95.465 Y123.165 E80.84586
G1 X95.202 Y122.516 E80.91203
G1 X95.015 Y121.842 E80.97813
G1 X94.905 Y121.151 E81.04425
G1 X94.875 Y120.542 E81.10187
G1 X94.875 Y114.798 E81.64468
G1 X94.915 Y114.099 E81.71085
G1 X95.034 Y113.41 E81.77692
G1 X95.232 Y112.739 E81.84303
G1 X95.288 Y112.606 E81.85667
G1 X95.065 Y111.842 E81.93188
G1 X94.955 Y111.151 E81.998
G1 X94.925 Y110.542 E82.05562
G1 X94.925 Y89.798 E84.01593
G1 X94.965 Y89.099 E84.08209
G1 X95.084 Y88.41 E84.14817
G1 X95.282 Y87.739 E84.21428
G1 X95.554 Y87.094 E84.28043
G1 X95.898 Y86.485 E84.34653
G1 X96.31 Y85.919 E84.41269
G0 F4500 X96.657 Y86.05
G1 F1800 X97.069 Y85.611 E84.46958
G1 X97.577 Y85.16 E84.53377
G1 X98.135 Y84.772 E84.598
G1 X98.734 Y84.451 E84.66222
G1 X99.366 Y84.203 E84.72638
G1 X100.024 Y84.031 E84.79065
G1 X100.697 Y83.938 E84.85485
G1 X121.897 Y83.92 E86.85825
G1 X122.575 Y83.96 E86.92244
